!!!!SEGMENT: pl-cz--iii-98--001-001_danik-jan-ignac--offertorium-ave-mater.krn
!!!cenid: 17xx:869
!!!COM: Danik, Ján Ignác
!!!COM-rismID: pe30000792
!!!CDT: ~1700-~1799
!!!CNT: Czech
!!!OPR: Offertorium
!!!OTL: Ave Mater
!!!OMV: 001
!!!PDT: 1773
!!!AGN: Sacred
!!!YEC: Copyright 2022 Narodowy Instytut Fryderyka Chopina (https://polishscores.org)
!!!YEM: License CC-BY-4.0 (https://creativecommons.org/licenses/by/4.0)
!!!SMS-siglum: PL-CZ
!!!SMS-shelfmark: III-98
!!!SMS-shelfwork: 001-001 M
!!!SMS-variant:
!!!SMS-altvar:
!!!NIFC-rismSourceID: 300000097
!!!NIFC-rismChildID: 300000097
!!!NIFC-islandoraID: pl-cz:41807
!!!URL-pdf-islandora: https://repozytorium.nifc.pl/islandora/object/pl-cz%3A41807/datastream/PDF/view
!!!URL-scan: https://polish.musicsources.pl/pl/lokalizacje/galeria/rekopisy/7045/1 @EN{Scan on Polish Music Sources Website} @PL{Skany w portalu Dziedzictwo Muzyki Polskiej w otwartym dostępie}
!!!IIIF:
!!!ONB-nifc: UWAGA: części Offertorium: Ave Mater, Eia omnes. Uwaga: brak partii clno 1, 2
!!!AIN: 1 bass 1 organ 2 soprn 1 tenor 2 tromp 2 violn
!!!key: D
**kern	**fba	**dynam	**kern	**dynam	**kern	**dynam	**kern	**kern	**kern	**text	**kern	**text	**kern	**kern
*group4	*	*	*group3	*	*group3	*	*group2	*group2	*group2	*	*group2	*	*group1	*group1
*part9	*	*	*part8	*	*part7	*	*part6	*part5	*part4	*	*part3	*	*part2	*part1
*staff9	*	*	*staff8	*	*staff7	*	*staff6	*staff5	*staff4	*	*staff3	*	*staff2	*staff1
*I"Organo.	*	*	*I"Violino 2.do ex D.	*	*I"Violino Primo.	*	*I"Baſso.	*I"Tenore.	*I"Canto Secundo.	*	*I"Canto Primo.	*	*I"[Clarino Secundo]	*I"[Clarino Primo]
*I'org	*	*	*I'vl 2	*	*I'vl 1	*	*I'B	*I'T	*I'S 2	*	*I'S 1	*	*I'[clno 2]	*I'[clno 1]
*Iorgan	*	*	*Ivioln	*	*Ivioln	*	*Ibass	*Itenor	*Isoprn	*	*Isoprn	*	*Itromp	*Itromp
*ICklav	*	*	*ICstr	*	*ICstr	*	*ICvox	*ICvox	*ICvox	*	*ICvox	*	*ICbras	*ICbras
*clefF4	*	*	*clefG2	*	*clefG2	*	*clefF4	*clefC4	*clefC1	*	*clefC1	*	*clefG2	*clefG2
*	*	*	*	*	*	*	*	*	*	*	*	*	*ITrd-1c-2	*ITrd-1c-2
*k[f#c#]	*	*	*k[f#c#]	*	*k[f#c#]	*	*k[f#c#]	*k[f#c#]	*k[f#c#]	*	*k[f#c#]	*	*k[f#c#]	*k[f#c#]
*D:	*	*	*D:	*	*D:	*	*D:	*D:	*D:	*	*D:	*	*D:	*D:
*M4/4	*	*	*M4/4	*	*M4/4	*	*M4/4	*M4/4	*M4/4	*	*M4/4	*	*M4/4	*M4/4
*met(c)	*	*	*met(c)	*	*met(c)	*	*met(c)	*met(c)	*met(c)	*	*met(c)	*	*met(c)	*met(c)
=1	=1	=1	=1	=1	=1	=1	=1	=1	=1	=1	=1	=1	=1	=1
!!LO:TX:t=P:problem:metrum C z ogonkiem
!!LO:TX:t=P:problem:vl 1, 2: niejednoznaczny zapis oznaczenia triol – cyfra lub łuk, przyjęto cyfrę
!	!	!	!	!	!	!	!	!	!	!	!LO:TX:t=P:problem=all\middle or right	!	!	!
!	!	!	!	!	!	!	!	!	!	!	!LO:TX:t=P:znaki:problem= cc# zamiast c#	!	!	!
!	!	!	!	!	!	!	!	!	!LO:TX:t=P:znaki:problem=cc# zamiast c#	!	!LO:TX:a:t=Duetto	!	!	!
!LO:TX:a:t=Duetto.	!	!	!LO:TX:a:t=Duetto	!	!LO:TX:a:t=Duetto.	!	!	!	!LO:TX:a:B:t=Andante.	!	!LO:TX:a:B:t=Andante	!	!	!
!LO:TX:a:B:t=andante.	!	!	!LO:TX:a:B:t=andante	!	!LO:TX:a:B:t=Andante.	!	!LO:TX:a:t=tacet.	!LO:TX:a:t=tacet	!LO:TX:a:t=P:9:problem=dopisane ołówkiem	!	!LO:TX:a:t=8.	!	!LO:TX:t=P:problem=brak partii	!LO:TX:t=P:problem=brak partii
8D\L	.	.	(16a/LL	.	(16dd\LL	.	1ryy	1ryy	00r	.	00r	.	1ryy	1ryy
.	.	.	16f#/)	.	16a\)	.	.	.	.	.	.	.	.	.
8D\	.	.	(16dd/	.	(16ff#\	.	.	.	.	.	.	.	.	.
.	.	.	16a/JJ)	.	16dd\JJ)	.	.	.	.	.	.	.	.	.
8D\	.	.	8ff#|\L	.	8aa|\L	.	.	.	.	.	.	.	.	.
8D\J	.	.	(16dd\L	.	(16ff#\L	.	.	.	.	.	.	.	.	.
.	.	.	16a\JJ)	.	16dd\JJ)	.	.	.	.	.	.	.	.	.
8G\L	6 3	.	(16b/LL	.	(16gg\LL	.	.	.	.	.	.	.	.	.
.	.	.	16g/)	.	16ee\)	.	.	.	.	.	.	.	.	.
8A\J	.	.	(16e/	.	(16cc#\	.	.	.	.	.	.	.	.	.
.	.	.	16g/JJ)	.	16ee\JJ)	.	.	.	.	.	.	.	.	.
.	.	.	8qqg/	.	8qqee/	.	.	.	.	.	.	.	.	.
8D\L	.	.	4f#/	.	4dd\	.	.	.	.	.	.	.	.	.
16F#\L	x 6	.	.	.	.	.	.	.	.	.	.	.	.	.
16A\JJ	.	.	.	.	.	.	.	.	.	.	.	.	.	.
=2	=2	=2	=2	=2	=2	=2	=2	=2	=2	=2	=2	=2	=2	=2
!LO:TX:t=P:problem=mixed beam	!	!	!	!	!	!LO:DY:a:Bi:t=p&colon;	!	!	!	!	!	!	!	!
8d\L	.	.	(16f#/LL	.	(16d/LL	p	1ryy	1ryy	.	.	.	.	1ryy	1ryy
.	.	.	16d/)	.	16A/)	.	.	.	.	.	.	.	.	.
8D/	.	.	(16d/	.	(16f#/	.	.	.	.	.	.	.	.	.
.	.	.	16A/JJ)	.	16d/JJ)	.	.	.	.	.	.	.	.	.
8D/	.	.	8f#|/L	.	8a|/L	.	.	.	.	.	.	.	.	.
8D/J	.	.	(16d/L	.	(16f#/L	.	.	.	.	.	.	.	.	.
.	.	.	16A/JJ)	.	16d/JJ)	.	.	.	.	.	.	.	.	.
8GG/L	6 3	.	(16B/LL	.	(16g/LL	.	.	.	.	.	.	.	.	.
.	.	.	16G/)	.	16e/)	.	.	.	.	.	.	.	.	.
8AA/J	.	.	(16e/	.	(16c#/	.	.	.	.	.	.	.	.	.
.	.	.	16g/JJ)	.	16e/JJ)	.	.	.	.	.	.	.	.	.
.	.	.	.	.	8qqe/	.	.	.	.	.	.	.	.	.
!LO:TX:t=P:problem=mixed beam	!	!	!	!	!	!	!	!	!	!	!	!	!	!
8D\L	.	.	4f#/	.	4d/	.	.	.	.	.	.	.	.	.
8DD/J	.	.	.	.	.	.	.	.	.	.	.	.	.	.
=3	=3	=3	=3	=3	=3	=3	=3	=3	=3	=3	=3	=3	=3	=3
*	*	*	*^	*	*	*	*	*	*	*	*	*	*	*
!	!	!	!	!	!	!	!LO:DY:a:Bi:t=f&colon;	!	!	!	!	!	!	!	!
4r	.	.	(16cc#\LL	4ryy	.	(16ee\LL	f	1ryy	1ryy	.	.	.	.	1ryy	1ryy
.	.	.	16b\J)	.	.	16dd\J)	.	.	.	.	.	.	.	.	.
.	.	.	8cc#|\J	.	.	8ee|\J	.	.	.	.	.	.	.	.	.
!LO:TX:t=P:problem=mixed beam	!	!	!	!	!	!	!	!	!	!	!	!	!	!	!
8A\L	.	.	8e/L	8c#\L	.	(32ee\LLL	.	.	.	.	.	.	.	.	.
.	.	.	.	.	.	32dd\)	.	.	.	.	.	.	.	.	.
.	.	.	.	.	.	(32cc#\	.	.	.	.	.	.	.	.	.
.	.	.	.	.	.	32b\JJJ)	.	.	.	.	.	.	.	.	.
8AA/J	.	.	8e/J	8c#\J	.	16cc#'\LL	.	.	.	.	.	.	.	.	.
.	.	.	.	.	.	16a'\JJ	.	.	.	.	.	.	.	.	.
4r	.	.	(16dd\LL	4ryy	.	(16ff#\LL	.	.	.	.	.	.	.	.	.
.	.	.	16cc#\J)	.	.	16ee\J)	.	.	.	.	.	.	.	.	.
.	.	.	8dd|\J	.	.	8ff#|\J	.	.	.	.	.	.	.	.	.
!LO:TX:t=P:problem=mixed beam	!	!	!	!	!	!LO:LB:g=original	!	!	!	!	!	!	!	!	!
8d\L	.	.	8a/L	8f#\L	.	(32aa\LLL	.	.	.	.	.	.	.	.	.
.	.	.	.	.	.	32gg\)	.	.	.	.	.	.	.	.	.
.	.	.	.	.	.	(32ff#\	.	.	.	.	.	.	.	.	.
.	.	.	.	.	.	32ee\JJJ)	.	.	.	.	.	.	.	.	.
8D/J	.	.	8a/J	8f#\J	.	16ff#'\LL	.	.	.	.	.	.	.	.	.
.	.	.	.	.	.	16dd'\JJ	.	.	.	.	.	.	.	.	.
*	*	*	*v	*v	*	*	*	*	*	*	*	*	*	*	*
=4	=4	=4	=4	=4	=4	=4	=4	=4	=4	=4	=4	=4	=4	=4
!LO:TX:t=P:problem=mixed beam	!	!	!	!	!	!	!	!	!	!	!	!	!	!
8A\L	.	.	(16e/LL	.	(16a\LL	.	1ryy	1ryy	.	.	.	.	1ryy	1ryy
.	.	.	16a/)	.	16cc#\)	.	.	.	.	.	.	.	.	.
8AA/	.	.	(16a/	.	(16cc#\	.	.	.	.	.	.	.	.	.
.	.	.	16cc#/JJ)	.	16ee\JJ)	.	.	.	.	.	.	.	.	.
!	!	!	!LO:LB:g=original	!	!	!	!	!	!	!	!	!	!	!
8AA/	.	.	8.cc#t\L	.	8.eeT\L	.	.	.	.	.	.	.	.	.
8AA/J	.	.	.	.	.	.	.	.	.	.	.	.	.	.
.	.	.	(32dd\LL	.	(32ff#\LL	.	.	.	.	.	.	.	.	.
.	.	.	32ee\JJJ)	.	32gg\JJJ)	.	.	.	.	.	.	.	.	.
!LO:TX:t=P:problem=mixed beam	!	!	!	!	!	!	!	!	!	!	!	!	!	!
8D\L	.	.	(16a/LL	.	(16ff#\LL	.	.	.	.	.	.	.	.	.
.	.	.	16f#/)	.	16dd\)	.	.	.	.	.	.	.	.	.
8G\	x 6	.	(16b/	.	(16gg\	.	.	.	.	.	.	.	.	.
.	.	.	16g/JJ)	.	16ee\JJ)	.	.	.	.	.	.	.	.	.
8A\	.	.	8f#/L	.	8dd\L	.	.	.	.	.	.	.	.	.
8AA/J	.	.	8e/J	.	8cc#\J	.	.	.	.	.	.	.	.	.
!LO:LB:g=original	!	!	!	!	!	!	!	!	!	!	!	!	!	!
=5	=5	=5	=5	=5	=5	=5	=5	=5	=5	=5	=5	=5	=5	=5
!LO:TX:t=P:problem=mixed beam	!	!	!	!	!	!	!	!	!	!	!	!	!	!
8D\L	.	.	(16ff#\LL	.	16ddd\LL	.	1ryy	1ryy	00r	.	00r	.	1ryy	1ryy
.	.	.	16dd\)	.	16aa\	.	.	.	.	.	.	.	.	.
8F#\	6 3	.	(16dd\	.	16ff#\	.	.	.	.	.	.	.	.	.
.	.	.	16a\JJ)	.	16dd\JJ	.	.	.	.	.	.	.	.	.
8AA/	x 7	.	(16ee\LL	.	(16gg\LL	.	.	.	.	.	.	.	.	.
.	.	.	16cc#\)	.	16ee\)	.	.	.	.	.	.	.	.	.
8D/J	.	.	(16a\	.	(16dd\	.	.	.	.	.	.	.	.	.
.	.	.	16dd\JJ)	.	16ff#\JJ)	.	.	.	.	.	.	.	.	.
!LO:TX:t=P:problem=mixed beam	!	!	!	!	!	!	!	!	!	!	!	!	!	!
8A\L	6 4	.	8ddT\L	.	8ff#t\L	.	.	.	.	.	.	.	.	.
8AA/J	5 3	.	8cc#\J	.	8ee\J	.	.	.	.	.	.	.	.	.
16C#/LL	6 3_	.	8r	.	8r	.	.	.	.	.	.	.	.	.
16E/	.	.	.	.	.	.	.	.	.	.	.	.	.	.
16C#/	.	.	8ee\	.	8gg\	.	.	.	.	.	.	.	.	.
16AA/JJ	.	.	.	.	.	.	.	.	.	.	.	.	.	.
=6	=6	=6	=6	=6	=6	=6	=6	=6	=6	=6	=6	=6	=6	=6
!	!	!	!LO:TX:t=P:problem=dwie triole połączone belką	!	!	!	!	!	!	!	!	!	!	!
8D\	x x	.	24dd\LL	.	24ff#\LL	.	1ryy	1ryy	.	.	.	.	1ryy	1ryy
.	.	.	24ee\	.	24gg\	.	.	.	.	.	.	.	.	.
.	.	.	24ff#\	.	24aa\JJ	.	.	.	.	.	.	.	.	.
8r	.	.	24ee\	.	24gg\LL	.	.	.	.	.	.	.	.	.
.	.	.	24ff#\	.	24aa\	.	.	.	.	.	.	.	.	.
.	.	.	24gg\JJ	.	24bb\JJ	.	.	.	.	.	.	.	.	.
!LO:TX:t=P:problem=mixed beam	!	!	!	!	!	!	!	!	!	!	!	!	!	!
8d\L	.	.	(16ff#\LL	.	(16aa\LL	.	.	.	.	.	.	.	.	.
.	.	.	16dd\)	.	16ff#\)	.	.	.	.	.	.	.	.	.
8D/J	.	.	(16ff#\	.	(16aa\	.	.	.	.	.	.	.	.	.
.	.	.	16dd\JJ)	.	16ff#\JJ)	.	.	.	.	.	.	.	.	.
!	!	!	!	!	!LO:LB:g=original	!	!	!	!	!	!	!	!	!
!	!	!	!LO:TX:t=P:problem=dwie triole połączone belką	!	!LO:TX:t=P:problem=dwie triole połączone belką	!	!	!	!	!	!	!	!	!
8AA/	x 7_	.	24cc#\LL	.	24ee\LL	.	.	.	.	.	.	.	.	.
.	.	.	24dd\	.	24ff#\	.	.	.	.	.	.	.	.	.
.	.	.	24ee\	.	24gg\	.	.	.	.	.	.	.	.	.
8r	.	.	24dd\	.	24ff#\	.	.	.	.	.	.	.	.	.
.	.	.	24ee\	.	24gg\	.	.	.	.	.	.	.	.	.
.	.	.	24ff#\JJ	.	24aa\JJ	.	.	.	.	.	.	.	.	.
!LO:TX:t=P:problem=mixed beam	!	!	!	!	!	!	!	!	!	!	!	!	!	!
8A\L	.	.	(16ee\LL	.	(16gg\LL	.	.	.	.	.	.	.	.	.
.	.	.	16cc#\)	.	16ee\)	.	.	.	.	.	.	.	.	.
8AA/J	.	.	(16ee\	.	(16gg\	.	.	.	.	.	.	.	.	.
.	.	.	16cc#\JJ)	.	16ee\JJ)	.	.	.	.	.	.	.	.	.
!	!	!	!LO:LB:g=original	!	!	!	!	!	!	!	!	!	!	!
=7	=7	=7	=7	=7	=7	=7	=7	=7	=7	=7	=7	=7	=7	=7
*	*	*	*Xtuplet	*	*	*	*	*	*	*	*	*	*	*
!	!	!	!	!	!LO:TX:t=P:problem=dwie triole połączone belką	!	!	!	!	!	!	!	!	!
8D\	x x	.	(24f#/LL	.	24dd\LL	.	1ryy	1ryy	.	.	.	.	1ryy	1ryy
.	.	.	24g/)	.	24ee\	.	.	.	.	.	.	.	.	.
.	.	.	(24a/	.	24ff#\	.	.	.	.	.	.	.	.	.
8r	.	.	24g/)	.	24ee\	.	.	.	.	.	.	.	.	.
.	.	.	(24a/	.	24ff#\	.	.	.	.	.	.	.	.	.
.	.	.	24b/JJ)	.	24gg\JJ	.	.	.	.	.	.	.	.	.
!LO:TX:t=P:problem=mixed beam	!	!	!	!	!	!	!	!	!	!	!	!	!	!
8d\L	.	.	(16a/LL	.	(16ff#\LL	.	.	.	.	.	.	.	.	.
.	.	.	16f#/)	.	16dd\)	.	.	.	.	.	.	.	.	.
8D/J	.	.	(16a/	.	(16ff#\	.	.	.	.	.	.	.	.	.
.	.	.	16f#/JJ)	.	16dd\JJ)	.	.	.	.	.	.	.	.	.
!	!	!	!	!	!LO:TX:t=P:problem=dwie triole połączone belką	!	!	!	!	!	!	!	!	!
8AA/	x 7	.	(24e/LL	.	24cc#\LL	.	.	.	.	.	.	.	.	.
.	.	.	24f#/)	.	24dd\	.	.	.	.	.	.	.	.	.
.	.	.	(24g/	.	24ee\	.	.	.	.	.	.	.	.	.
8r	.	.	24f#/)	.	24dd\	.	.	.	.	.	.	.	.	.
.	.	.	(24g/	.	24ee\	.	.	.	.	.	.	.	.	.
.	.	.	24a/JJ)	.	24ff#\JJ	.	.	.	.	.	.	.	.	.
!LO:TX:t=P:problem=mixed beam	!	!	!	!	!	!	!	!	!	!	!	!	!	!
8A\L	.	.	(16g/LL	.	(16ee\LL	.	.	.	.	.	.	.	.	.
.	.	.	16e/)	.	16cc#\)	.	.	.	.	.	.	.	.	.
8AA/J	.	.	(16g/	.	(16ee\	.	.	.	.	.	.	.	.	.
.	.	.	16e/JJ)	.	16cc#\JJ)	.	.	.	.	.	.	.	.	.
=8	=8	=8	=8	=8	=8	=8	=8	=8	=8	=8	=8	=8	=8	=8
8D\L	.	.	(16dd\LL	.	(16ff#\LL	.	1ryy	1ryy	.	.	.	.	1ryy	1ryy
.	.	.	16ee\	.	16gg\)	.	.	.	.	.	.	.	.	.
8F#\	x 6	.	16ff#\)	.	16aa'\	.	.	.	.	.	.	.	.	.
.	.	.	16a|\JJ	.	16dd'\JJ	.	.	.	.	.	.	.	.	.
8G\	x 6	.	(16a/LL	.	(16ff#\LL	.	.	.	.	.	.	.	.	.
.	.	.	16g/)	.	16ee\)	.	.	.	.	.	.	.	.	.
8A\J	x 7	.	(16f#/	.	(16dd\	.	.	.	.	.	.	.	.	.
.	.	.	16e/JJ)	.	16cc#\JJ)	.	.	.	.	.	.	.	.	.
16.d\LL	.	.	16.f#/LL	.	16.dd\LL	.	.	.	.	.	.	.	.	.
32A\K	.	.	32a/K	.	32a\K	.	.	.	.	.	.	.	.	.
16.F#\	.	.	16.f#/	.	16.f#\	.	.	.	.	.	.	.	.	.
32A\JJk	.	.	32a/JJk	.	32a\JJk	.	.	.	.	.	.	.	.	.
4D/	.	.	4d/	.	4d;;/	.	.	.	.	.	.	.	.	.
!LO:LB:g=original	!	!	!	!	!LO:LB:g=original	!	!	!	!	!	!	!	!	!
=9;;	=9;;	=9	=9;;	=9	=9	=9	=9	=9	=9	=9	=9	=9	=9	=9
!	!	!LO:DY:a:Bi:t=Piano.	!	!LO:DY:a:Bi:t=Piano.	!	!LO:DY:a:Bi:t=piano.	!	!	!	!	!	!	!	!
8D\L	.	p	16a/LL	p	(16dd\LL	p	1ryy	1ryy	1r	.	(16dd\LL	A-	1ryy	1ryy
.	.	.	16f#/JJ	.	16a\)	.	.	.	.	.	16a\JJ)	.	.	.
8D\	.	.	(16dd\LL	.	(16ff#\	.	.	.	.	.	(16ff#\LL	-ve	.	.
.	.	.	16a\JJ)	.	16dd\JJ)	.	.	.	.	.	16dd\JJ)	.	.	.
8D\	.	.	8ff#|\L	.	8aa'\L	.	.	.	.	.	8aa|\	Ma-	.	.
8D\J	.	.	(16dd\L	.	(16ff#\L	.	.	.	.	.	(16ff#\LL	-ter	.	.
.	.	.	16a\JJ)	.	16dd\JJ)	.	.	.	.	.	16dd\JJ)	.	.	.
!LO:TX:t=P:problem=mixed beam	!	!	!LO:LB:g=original	!	!	!	!	!	!	!	!	!	!	!
8G\L	6 3	.	(16b/LL	.	(16gg\LL	.	.	.	.	.	(16gg\LL	gra-	.	.
.	.	.	16g/)	.	16ee\)	.	.	.	.	.	16ee\JJ)	.	.	.
8A\	x 7	.	(16e/	.	(16cc#\	.	.	.	.	.	(16cc#\LL	-ti-	.	.
.	.	.	16g/JJ)	.	16ee\JJ)	.	.	.	.	.	16ee\JJ)	.	.	.
.	.	.	8qqg/	.	8qqee/	.	.	.	.	.	16qqee/	.	.	.
8d\	.	.	4f#/	.	4dd\	.	.	.	.	.	4dd\	-ae	.	.
8D/J	.	.	.	.	.	.	.	.	.	.	.	.	.	.
=10	=10	=10	=10	=10	=10	=10	=10	=10	=10	=10	=10	=10	=10	=10
*2\right	*	*	*	*	*	*	*	*	*	*	*	*	*	*
*tremolo	*	*	*	*	*	*	*	*	*	*	*	*	*	*
!	!	!	!	!	!	!	!	!	!	!	!LO:TX:a:t=1	!	!	!
8D\L	.	.	(16a/LL	.	(16dd\LL	.	1ryy	1ryy	(16dd\LL	Sal-	1r	.	1ryy	1ryy
.	.	.	16f#/)	.	16a\)	.	.	.	16a\JJ)	.	.	.	.	.
8D\	.	.	(16dd/	.	(16ff#\	.	.	.	(16ff#\LL	-ve	.	.	.	.
.	.	.	16a/JJ)	.	16dd\JJ)	.	.	.	16dd\JJ)	.	.	.	.	.
8D\	.	.	8ff#|\L	.	8aa|\L	.	.	.	8aa\	Ma-	.	.	.	.
8D\J	.	.	(16dd\L	.	(16ff#\L	.	.	.	16ff#\	-ter	.	.	.	.
.	.	.	16a\JJ)	.	16dd\JJ)	.	.	.	16dd\	Cle-	.	.	.	.
*Xtremolo	*	*	*	*	*	*	*	*	*	*	*	*	*	*
8GG/L	x 6	.	(16b/LL	.	(16gg\LL	.	.	.	(16gg\LL	-men-	.	.	.	.
.	.	.	16g/)	.	16ee\)	.	.	.	16ee\JJ)	.	.	.	.	.
8AA/	.	.	(16e/	.	(16cc#\	.	.	.	(16cc#\LL	-ti-	.	.	.	.
.	.	.	16g/JJ)	.	16ee\JJ)	.	.	.	16ee\JJ)	.	.	.	.	.
.	.	.	.	.	8qqee/	.	.	.	8qqee/	.	.	.	.	.
8D/	.	.	4f#/	.	4dd\	.	.	.	4dd\	-ae	.	.	.	.
8DD/J	.	.	.	.	.	.	.	.	.	.	.	.	.	.
=11	=11	=11	=11	=11	=11	=11	=11	=11	=11	=11	=11	=11	=11	=11
*	*	*	*^	*	*	*	*	*	*	*	*	*	*	*
4r	.	.	(16cc#\LL	4ryy	.	(16ee\LL	.	1ryy	1ryy	16cc#\	Do-	16ee\	Do-	1ryy	1ryy
.	.	.	16b\J)	.	.	16dd\J)	.	.	.	16b\	-mi-	16dd\	-mi-	.	.
.	.	.	8cc#|\J	.	.	8ee\J	.	.	.	8cc#\	-na	8ee\	-na	.	.
!LO:TX:t=P:problem=mixed beam	!	!	!	!	!	!	!LO:DY:a:Bi:t=f&colon;	!	!	!	!	!	!	!	!
8A\L	.	.	8eL 8c#/	4ryy	.	(32ee\LLL	f	.	.	4r	.	4r	.	.	.
.	.	.	.	.	.	32dd\	.	.	.	.	.	.	.	.	.
.	.	.	.	.	.	32cc#\	.	.	.	.	.	.	.	.	.
.	.	.	.	.	.	32b\JJJ)	.	.	.	.	.	.	.	.	.
8AA/J	.	.	8eJ 8c#/	.	.	16cc#'\LL	.	.	.	.	.	.	.	.	.
.	.	.	.	.	.	16a'\JJ	.	.	.	.	.	.	.	.	.
*	*	*	*	*	*	*	*	*	*	*	*ij	*	*ij	*	*
!	!	!	!	!	!	!	!LO:DY:a:Bi:t=p&colon;	!	!	!	!	!	!	!	!
4r	.	.	(16dd\LL	4ryy	.	(16ff#\LL	p	.	.	16dd\	Do-	16ff#\	Do-	.	.
.	.	.	16cc#\J)	.	.	16ee\J)	.	.	.	16cc#\	-mi-	16ee\	-mi-	.	.
.	.	.	8dd|\J	.	.	8ff#\J	.	.	.	8dd\	-na	8ff#\	-na	.	.
*	*	*	*	*	*	*	*	*	*	*	*Xij	*	*Xij	*	*
!LO:TX:t=P:problem=mixed beam	!	!	!	!	!	!	!LO:DY:a:Bi:t=f&colon;	!	!	!	!	!	!	!	!
8d\L	.	.	8a/L	8f#\L	.	32aa\LLL	f	.	.	4r	.	4r	.	.	.
.	.	.	.	.	.	32gg\	.	.	.	.	.	.	.	.	.
.	.	.	.	.	.	(32ff#\	.	.	.	.	.	.	.	.	.
.	.	.	.	.	.	32ee\JJJ)	.	.	.	.	.	.	.	.	.
8D/J	.	.	8a/J	8f#\J	.	16ff#\LL	.	.	.	.	.	.	.	.	.
.	.	.	.	.	.	16dd\JJ	.	.	.	.	.	.	.	.	.
*	*	*	*v	*v	*	*	*	*	*	*	*	*	*	*	*
*	*	*	*	*	*	*	*	*	*	*	*custos:a	*	*	*
!	!	!	!	!	!LO:LB:g=original	!	!	!	!LO:LB:g=original	!	!LO:LB:g=original	!	!	!
=12	=12	=12	=12	=12	=12	=12	=12	=12	=12	=12	=12	=12	=12	=12
!	!	!	!	!	!	!LO:DY:a:Bi:t=p&colon;	!	!	!	!	!	!	!	!
8AA/L	.	.	4cc#\	.	4ee\	p	1ryy	1ryy	4cc#\	to-	4ee\	To-	1ryy	1ryy
8BB/	.	.	.	.	.	.	.	.	.	.	.	.	.	.
8C#/	.	.	(16cc#\LL	.	(16ee\LL	.	.	.	(16cc#\LL	-ti-	(16ee\LL	-ti-	.	.
.	.	.	16dd\)	.	16ff#\)	.	.	.	16dd\JJ)	.	16ff#\JJ)	.	.	.
8AA/J	x 7	.	(16dd\	.	(16ff#\	.	.	.	(16dd\LL	-us	(16ff#\LL	-us	.	.
.	.	.	16ee\JJ)	.	16gg\JJ)	.	.	.	16ee\JJ)	.	16gg\JJ)	.	.	.
8D\	.	.	8.ddT\L	.	8.ff#t\L	.	.	.	8.ddT\L	no-	8.ff#\L	no-	.	.
8r	.	.	.	.	.	.	.	.	.	.	.	.	.	.
.	.	.	(32ee\LL	.	(32gg\LL	.	.	.	(32ee\LL	.	(32gg\LL	.	.	.
.	.	.	32ff#\JJJ)	.	32aa\JJJ)	.	.	.	32ff#\JJJ)	.	32aa\JJJ)	.	.	.
8C#/L	6 3	.	8ee\L	.	8gg\L	.	.	.	8ee\	-strae	8gg\	-stre	.	.
8D/J	.	.	8dd\J	.	8ff#\J	.	.	.	8dd\	Vi-	8ff#\	Vi-	.	.
=13	=13	=13	=13	=13	=13	=13	=13	=13	=13	=13	=13	=13	=13	=13
.	.	.	.	.	.	.	.	.	.	.	8qqff#/	.	.	.
!	!	!	!	!	!	!LO:DY:a:Bi:t=for.	!	!	!	!	!	!	!	!
8AA/	.	.	16cc#|\LL	.	16ee\LL	f	1ryy	1ryy	4cc#\	-tae,	4ee\	-tae,	1ryy	1ryy
.	.	.	16cc#\	.	16ee\	.	.	.	.	.	.	.	.	.
8r	.	.	(16ee\	.	(16aa\	.	.	.	.	.	.	.	.	.
.	.	.	16cc#\JJ)	.	16ee\JJ)	.	.	.	.	.	.	.	.	.
!	!	!	!LO:LB:g=original	!	!	!	!	!	!	!	!	!	!	!
8E\	7 #	.	16r	.	16r	.	.	.	4r	.	4r	.	.	.
.	.	.	16b|\LL	.	16dd|\LL	.	.	.	.	.	.	.	.	.
8r	.	.	(16dd\	.	(16ff#\	.	.	.	.	.	.	.	.	.
.	.	.	16b\JJ)	.	16dd\JJ)	.	.	.	.	.	.	.	.	.
!LO:LB:g=original	!	!	!	!	!	!	!	!	!	!	!	!	!	!
!LO:TX:t=P:problem=mixed beam	!	!	!	!	!	!	!	!	!	!	!	!	!	!
8A\L	.	.	(16a/LL	.	(16cc#\LL	.	.	.	2r	.	2r	.	.	.
.	.	.	16cc#/J)	.	16ee\)	.	.	.	.	.	.	.	.	.
8C#/	x 6	.	8e|/J	.	(16a\	.	.	.	.	.	.	.	.	.
.	.	.	.	.	16cc#\JJ)	.	.	.	.	.	.	.	.	.
8D/	x 6	.	(16d/LL	.	(16b\LL	.	.	.	.	.	.	.	.	.
.	.	.	16f#/)	.	16dd\)	.	.	.	.	.	.	.	.	.
8E/J	x #	.	(16B/	.	(16g#X\	.	.	.	.	.	.	.	.	.
.	.	.	16d/JJ)	.	16b\JJ)	.	.	.	.	.	.	.	.	.
=14	=14	=14	=14	=14	=14	=14	=14	=14	=14	=14	=14	=14	=14	=14
!LO:TX:t=P:problem=mixed beam	!	!	!	!	!	!LO:DY:a:Bi:t=piano.	!	!	!	!	!	!	!	!
8A\L	.	.	(16e/LL	.	(16a\LL	p	1ryy	1ryy	1r	.	(16a/LL	A-	1ryy	1ryy
.	.	.	16c#/)	.	16e\)	.	.	.	.	.	16e/JJ)	.	.	.
8AA/	.	.	(16cc#/	.	(16cc#\	.	.	.	.	.	(16cc#\LL	-ve	.	.
.	.	.	16e/JJ)	.	16a\JJ)	.	.	.	.	.	16a\JJ)	.	.	.
8AA/	.	.	8cc#|/L	.	8ee|\L	.	.	.	.	.	8ee\	Ma-	.	.
8AA/J	.	.	(16a/L	.	(16cc#\L	.	.	.	.	.	(16cc#\LL	-ter	.	.
.	.	.	16e/JJ)	.	16a\JJ)	.	.	.	.	.	16a\JJ)	.	.	.
!LO:TX:t=P:problem=mixed beam	!	!	!	!	!	!	!	!	!	!	!	!	!	!
8D\L	6 3	.	(16f#/LL	.	(16dd\LL	.	.	.	.	.	(16dd\LL	gra-	.	.
.	.	.	16d/)	.	16b\)	.	.	.	.	.	16b\JJ)	.	.	.
8E\	x #	.	(16B/	.	(16g#X\	.	.	.	.	.	(16g#X\LL	-ti-	.	.
.	.	.	16d/JJ)	.	16b\JJ)	.	.	.	.	.	16b\JJ)	.	.	.
.	.	.	.	.	.	.	.	.	.	.	8qqb/	.	.	.
8A\	.	.	4c#/	.	4a/	.	.	.	.	.	4a\	-ae	.	.
8AA/J	.	.	.	.	.	.	.	.	.	.	.	.	.	.
=15	=15	=15	=15	=15	=15	=15	=15	=15	=15	=15	=15	=15	=15	=15
!LO:TX:t=P:problem=mixed beam	!	!	!	!	!	!	!	!	!	!	!LO:TX:a:t=1.	!	!	!
8A\L	.	.	(16e/LL	.	(16a/LL	.	1ryy	1ryy	16a/LL	Sal-	1r	.	1ryy	1ryy
.	.	.	16c#/)	.	16e/)	.	.	.	16e/JJ	.	.	.	.	.
8AA/	.	.	(16a/	.	(16cc#/	.	.	.	(16cc#\LL	-ve	.	.	.	.
.	.	.	16e/JJ)	.	16a/JJ)	.	.	.	16a\JJ)	.	.	.	.	.
!	!	!	!	!	!LO:LB:g=original	!	!	!	!	!	!	!	!	!
8AA/	.	.	8cc#|/L	.	8ee|\L	.	.	.	8ee\	Ma-	.	.	.	.
8AA/J	.	.	(16a/L	.	(16cc#\L	.	.	.	16cc#\	-ter	.	.	.	.
.	.	.	16e/JJ)	.	16a\JJ)	.	.	.	16a\	Cle-	.	.	.	.
!LO:TX:t=P:problem=mixed beam	!	!	!	!	!	!	!	!	!	!	!	!	!	!
8D\L	6 3	.	(16f#/LL	.	(16dd\LL	.	.	.	(16dd\LL	-men-	.	.	.	.
.	.	.	16d/)	.	16b\)	.	.	.	16b\JJ)	.	.	.	.	.
8E\	x #	.	(16c#/	.	(16g#X\	.	.	.	(16g#X\LL	-ti-	.	.	.	.
.	.	.	16d/JJ)	.	16b\JJ)	.	.	.	16b\JJ)	.	.	.	.	.
8A\	.	.	4c#/	.	4a/	.	.	.	4a\	-ae	.	.	.	.
8AA/J	.	.	.	.	.	.	.	.	.	.	.	.	.	.
!	!	!	!	!	!	!	!	!	!LO:LB:g=original	!	!LO:LB:g=original	!	!	!
=16	=16	=16	=16	=16	=16	=16	=16	=16	=16	=16	=16	=16	=16	=16
4r	.	.	(16g#X/LL	.	(16b/LL	.	1ryy	1ryy	16g#X/	Do-	16b\	Do-	1ryy	1ryy
.	.	.	16f#/J)	.	16a/J)	.	.	.	16f#/	-mi-	16a\	-mi-	.	.
.	.	.	8g#|/J	.	8b|/J	.	.	.	8g#/	-na	8b\	-na	.	.
!LO:TX:t=P:problem=mixed beam	!	!	!	!	!	!LO:DY:a:Bi:t=f.	!	!	!	!	!	!	!	!
8E\L	x #	.	8g#L 8B/	.	(32b/LLL	f	.	.	4r	.	4r	.	.	.
.	.	.	.	.	32a/	.	.	.	.	.	.	.	.	.
.	.	.	.	.	32g#X/	.	.	.	.	.	.	.	.	.
.	.	.	.	.	32f#/JJJ)	.	.	.	.	.	.	.	.	.
8EE/J	.	.	8g#J 8B/	.	16g#'/LL	.	.	.	.	.	.	.	.	.
.	.	.	.	.	16e'/JJ	.	.	.	.	.	.	.	.	.
*	*	*	*	*	*	*	*	*	*	*ij	*	*ij	*	*
!	!	!	!	!	!	!LO:DY:a:Bi:t=p&colon;	!	!	!	!	!	!	!	!
4r	.	.	(16a/LL	.	(16cc#\LL	p	.	.	16a\	Do-	16cc#\	Do-	.	.
.	.	.	16g#/J)	.	16b\J)	.	.	.	16g#X\	-mi-	16b\	-mi-	.	.
.	.	.	8a/J	.	8cc#|\J	.	.	.	8a\	-na	8cc#\	-na	.	.
*	*	*	*	*	*	*	*	*	*	*Xij	*	*Xij	*	*
!LO:TX:t=P:problem=mixed beam	!	!	!LO:LB:g=original	!	!	!LO:DY:a:Bi:t=f&colon;	!	!	!	!	!	!	!	!
8A\L	.	.	8cc#L 8e/	.	32ee\LLL	f	.	.	4r	.	4r	.	.	.
.	.	.	.	.	32dd\	.	.	.	.	.	.	.	.	.
.	.	.	.	.	(32cc#\	.	.	.	.	.	.	.	.	.
.	.	.	.	.	32b\JJJ)	.	.	.	.	.	.	.	.	.
8AA/J	.	.	8cc#J 8e/	.	16cc#'\LL	.	.	.	.	.	.	.	.	.
.	.	.	.	.	16a'\JJ	.	.	.	.	.	.	.	.	.
=17	=17	=17	=17	=17	=17	=17	=17	=17	=17	=17	=17	=17	=17	=17
!	!	!	!	!	!	!LO:DY:a:Bi:t=p&colon;	!	!	!	!	!	!	!	!
8E\L	x #	.	4g#X/	.	4b\	p	1ryy	1ryy	4g#X\	to-	4b\	to-	1ryy	1ryy
8F#\	.	.	.	.	.	.	.	.	.	.	.	.	.	.
8G#X\	.	.	(16g#/LL	.	(16b\LL	.	.	.	(16g#\LL	-ti-	(16b\LL	-ti-	.	.
.	.	.	16a/)	.	16cc#\)	.	.	.	16a\JJ)	.	16cc#\JJ)	.	.	.
8E\J	x 7	.	(16a/	.	(16cc#\	.	.	.	(16a\LL	-us	(16cc#\LL	-us	.	.
.	.	.	16b/JJ)	.	16dd\JJ)	.	.	.	16b\JJ)	.	16dd\JJ)	.	.	.
8A\	.	.	8.aT\L	.	8.cc#t\L	.	.	.	8.aT\L	no-	8.cc#\L	no-	.	.
8r	.	.	.	.	.	.	.	.	.	.	.	.	.	.
.	.	.	(32b\LL	.	(32dd\LL	.	.	.	(32b\LL	.	32dd\LL	.	.	.
.	.	.	32cc#\JJJ)	.	32ee\JJJ)	.	.	.	32cc#\JJJ)	.	32ee\JJJ	.	.	.
8G#X\L	6 5	.	8b/L	.	8dd\L	.	.	.	8b\	-strae	8dd\	-stre	.	.
8A\J	.	.	8a/J	.	8cc#\J	.	.	.	8a\	Vi-	8cc#\	vi-	.	.
!LO:LB:g=original	!	!	!	!	!	!	!	!	!	!	!	!	!	!
=18	=18	=18	=18	=18	=18	=18	=18	=18	=18	=18	=18	=18	=18	=18
.	.	.	.	.	.	.	.	.	8qqa/	.	(8qqcc#/	.	.	.
!LO:TX:t=P:problem=mixed beam	!	!	!	!	!	!	!	!	!	!	!	!	!	!
8e\L	x #	.	4g#X/	.	4b\	.	1ryy	1ryy	4g#X\	-tae.	4b\)	-tae,	1ryy	1ryy
8E/J	.	.	.	.	.	.	.	.	.	.	.	.	.	.
!	!	!	!	!	!	!LO:DY:a:Bi:t=f&colon;	!	!	!	!	!	!	!	!
4r	.	.	(16b/LL	.	(16dd\LL	f	.	.	4r	.	4r	.	.	.
.	.	.	16a/)	.	16cc#\)	.	.	.	.	.	.	.	.	.
.	.	.	(16a/	.	(16cc#\	.	.	.	.	.	.	.	.	.
.	.	.	16g#/JJ)	.	16b\JJ)	.	.	.	.	.	.	.	.	.
!	!	!	!	!	!LO:LB:g=original	!LO:DY:a:Bi:t=p&colon;	!	!	!	!	!	!	!	!
8A\L	.	.	(16e/LL	.	16a\LL	p	.	.	2r	.	(16a\LL	Te	.	.
.	.	.	16a/)	.	16cc#\	.	.	.	.	.	16cc#\JJ	.	.	.
8A\	.	.	(16cc#/	.	16ee\	.	.	.	.	.	(16ee\LL)	nos	.	.
.	.	.	16ee/JJ)	.	16aa\JJ	.	.	.	.	.	16aa\JJ)	.	.	.
8A\	.	.	8cc#\L	.	8ee\L	.	.	.	.	.	8ee\	pi-	.	.
8E\J	7 #	.	8b\J	.	8dd\J	.	.	.	.	.	8dd\	-o	.	.
!	!	!	!	!	!	!	!	!	!LO:LB:g=original	!	!LO:LB:g=original	!	!	!
=19	=19	=19	=19	=19	=19	=19	=19	=19	=19	=19	=19	=19	=19	=19
*	*	*	*	*	*	*	*	*	*	*	*	*	*	*
!LO:TX:t=P:problem=mixed beam	!	!	!	!	!	!	!	!	!	!	!	!	!	!
8A\L	.	.	(16a\LL	.	(16cc#\LL	.	1ryy	1ryy	0r	.	(16cc#\LL	cor-	1ryy	1ryy
.	.	.	16b\J)	.	16dd\J)	.	.	.	.	.	16dd\JJ)	.	.	.
8AA/J	.	.	8cc#|\J	.	8ee|\J	.	.	.	.	.	8ee\	-de	.	.
4r	.	.	(16cc#\LL	.	(16ee\LL	.	.	.	.	.	4r	.	.	.
.	.	.	16b\)	.	16dd\)	.	.	.	.	.	.	.	.	.
.	.	.	(16b\	.	(16dd\	.	.	.	.	.	.	.	.	.
.	.	.	16a\JJ)	.	16cc#\JJ)	.	.	.	.	.	.	.	.	.
8A\L	.	.	(16e/LL	.	(16a\LL	.	.	.	.	.	(16a\LL	Te	.	.
.	.	.	16a/)	.	16cc#\)	.	.	.	.	.	16cc#\JJ)	.	.	.
8A\	.	.	(16cc#/	.	(16ee\	.	.	.	.	.	(16ee\LL	nos	.	.
.	.	.	16ee/JJ)	.	16aa\JJ)	.	.	.	.	.	16aa\JJ)	.	.	.
8A\	.	.	8cc#\L	.	8ee\L	.	.	.	.	.	8ee\	pi-	.	.
8F#\J	7 #	.	8b\J	.	8dd\J	.	.	.	.	.	8dd\	-o	.	.
=20	=20	=20	=20	=20	=20	=20	=20	=20	=20	=20	=20	=20	=20	=20
!LO:TX:t=P:problem=mixed beam	!	!	!	!	!	!	!	!	!	!	!	!	!	!
8A\L	.	.	(16a\LL	.	(16cc#\LL	.	1ryy	1ryy	.	.	(16cc#\LL	Cor-	1ryy	1ryy
.	.	.	16b\J)	.	16dd\J)	.	.	.	.	.	16dd\JJ)	.	.	.
8AA/J	.	.	8cc#|\J	.	8ee|\J	.	.	.	.	.	8ee\	-de	.	.
!	!	!	!LO:LB:g=original	!	!	!	!	!	!	!	!	!	!	!
4r	.	.	(16e/LL	.	(16cc#\LL	.	.	.	.	.	4r	.	.	.
.	.	.	16d/)	.	16b\)	.	.	.	.	.	.	.	.	.
.	.	.	(16d/	.	(16b\	.	.	.	.	.	.	.	.	.
.	.	.	16c#/JJ)	.	16a\JJ)	.	.	.	.	.	.	.	.	.
8AA/L	.	.	8c#/L	.	4ggT\	.	.	.	.	.	4gg\	Te	.	.
8BB/	.	.	8d/	.	.	.	.	.	.	.	.	.	.	.
8C#/	x 6	.	8e/	.	(16gg\LL	.	.	.	.	.	(16gg\LL	ho-	.	.
.	.	.	.	.	16ee\)	.	.	.	.	.	16ee\JJ)	.	.	.
8AA/J	x 7	.	8c#/J	.	(16cc#\	.	.	.	.	.	(16cc#\LL	-no-	.	.
.	.	.	.	.	16a\JJ)	.	.	.	.	.	16a\JJ)	.	.	.
=21	=21	=21	=21	=21	=21	=21	=21	=21	=21	=21	=21	=21	=21	=21
!LO:TX:t=P:problem=mixed beam	!	!	!	!	!	!	!	!	!	!	!	!	!	!
8A\L	.	.	(16a/LL	.	16ff#\LL	.	1ryy	1ryy	1r	.	(16ff#\LL	-ra-	1ryy	1ryy
.	.	.	16g/)	.	16ee\	.	.	.	.	.	16ee\JJ)	.	.	.
8AA/J	.	.	(16f#/	.	16dd\	.	.	.	.	.	(16dd\LL	.	.	.
.	.	.	16e/JJ)	.	16cc#\JJ	.	.	.	.	.	16cc#\JJ)	.	.	.
.	.	.	.	.	8qqcc#/	.	.	.	.	.	(8qqcc#/	.	.	.
!LO:TX:t=P:problem=mixed beam	!	!	!	!	!	!	!	!	!	!	!	!	!	!
8D\L	.	.	4f#/	.	4dd\	.	.	.	.	.	4dd\)	-mus	.	.
8DD/J	.	.	.	.	.	.	.	.	.	.	.	.	.	.
!	!	!	!	!	!	!LO:DY:a:Bi:t=p&colon;	!	!	!	!	!	!	!	!
8AA/L	x 7_	.	8c#/L	.	4g/	p	.	.	.	.	2r	.	.	.
8BB/	.	.	8d/	.	.	.	.	.	.	.	.	.	.	.
8C#/	.	.	8e/	.	16g/LL	.	.	.	.	.	.	.	.	.
.	.	.	.	.	16e/	.	.	.	.	.	.	.	.	.
8AA/J	.	.	8c#/J	.	16c#/	.	.	.	.	.	.	.	.	.
.	.	.	.	.	16A/JJ	.	.	.	.	.	.	.	.	.
!	!	!	!	!	!LO:LB:g=original	!	!	!	!	!	!	!	!	!
=22	=22	=22	=22	=22	=22	=22	=22	=22	=22	=22	=22	=22	=22	=22
!LO:TX:t=P:problem=mixed beam	!	!	!	!	!	!	!	!	!	!	!LO:TX:a:t=3	!	!	!
8A\L	x x	.	(16a/LL	.	(16f#/LL	.	1ryy	1ryy	2r	.	0r	.	1ryy	1ryy
.	.	.	16g/)	.	16e/)	.	.	.	.	.	.	.	.	.
8AA/	.	.	(16f#/	.	(16d/	.	.	.	.	.	.	.	.	.
.	.	.	16e/JJ)	.	16c#/JJ)	.	.	.	.	.	.	.	.	.
8D/	.	.	8f#/	.	8d/	.	.	.	.	.	.	.	.	.
8C#/J	6\ 3	.	8r	.	8r	.	.	.	.	.	.	.	.	.
!LO:TX:t=P:problem=mixed beam	!	!	!	!	!	!	!	!	!	!	!	!	!	!
8BB/L	x #	.	(16f#/LL	.	16b\LL	.	.	.	(16b\LL	Te	.	.	.	.
.	.	.	16b/JJ)	.	16dd#X\	.	.	.	16dd#X\JJ)	.	.	.	.	.
8B\	.	.	(16dd#X\LL	.	16ff#\	.	.	.	(16ff#\LL	nos	.	.	.	.
.	.	.	16ff#\JJ)	.	16bb\JJ	.	.	.	16bb\JJ)	.	.	.	.	.
8B\	.	.	8dd#\L	.	8ff#\L	.	.	.	8ff#\	cla-	.	.	.	.
8F#\J	7 #	.	8cc#\J	.	8ee\J	.	.	.	8ee\	-ra:	.	.	.	.
!LO:LB:g=original	!	!	!	!	!	!	!	!	!	!	!	!	!	!
=23	=23	=23	=23	=23	=23	=23	=23	=23	=23	=23	=23	=23	=23	=23
!LO:TX:t=P:problem=mixed beam	!	!	!	!	!	!	!	!	!	!	!	!	!	!
8B\L	x #	.	(16b\LL	.	(16dd#X\LL	.	1ryy	1ryy	(16dd#X\LL	Vo-	.	.	1ryy	1ryy
.	.	.	16cc#\J)	.	16ee\J)	.	.	.	16ee\JJ)	.	.	.	.	.
8BB/J	.	.	8dd#X\J	.	8ff#|\J	.	.	.	8ff#\	-ce	.	.	.	.
4r	.	.	(16dd#\LL	.	(16ff#\LL	.	.	.	4r	.	.	.	.	.
.	.	.	16cc#\)	.	16ee\)	.	.	.	.	.	.	.	.	.
.	.	.	(16cc#\	.	(16ee\	.	.	.	.	.	.	.	.	.
.	.	.	16b\JJ)	.	16dd#\JJ)	.	.	.	.	.	.	.	.	.
8B\L	x #	.	(16f#\LL	.	16b\LL	.	.	.	(16b\LL	Te	.	.	.	.
.	.	.	16b\)	.	16dd#\	.	.	.	16dd#X\JJ)	.	.	.	.	.
8B\	.	.	(16dd#X\	.	16ff#\	.	.	.	(16ff#\LL	nos	.	.	.	.
.	.	.	16ff#\JJ)	.	16bb\JJ	.	.	.	16bb\JJ)	.	.	.	.	.
!	!	!	!LO:LB:g=original	!	!	!	!	!	!	!	!	!	!	!
8B\	.	.	8dd#X\L	.	8ff#\L	.	.	.	8ff#\	cla-	.	.	.	.
8F#\J	7 #	.	8cc#\J	.	8ee\J	.	.	.	8ee\	-ra	.	.	.	.
=24	=24	=24	=24	=24	=24	=24	=24	=24	=24	=24	=24	=24	=24	=24
!LO:TX:t=P:problem=mixed beam	!	!	!	!	!	!	!	!	!	!	!	!	!	!
8B\L	x #	.	(16b\LL	.	(16dd#X\LL	.	1ryy	1ryy	(16dd#X\LL	Vo-	1r	.	1ryy	1ryy
.	.	.	16cc#\J)	.	16ee\J)	.	.	.	16ee\JJ)	.	.	.	.	.
8BB/J	.	.	8dd#X|\J	.	8ff#|\J	.	.	.	8ff#\	-ce	.	.	.	.
4r	.	.	(16f#/LL	.	(16dd#\LL	.	.	.	4r	.	.	.	.	.
.	.	.	16e/)	.	16cc#\)	.	.	.	.	.	.	.	.	.
.	.	.	(16e/	.	(16cc#\	.	.	.	.	.	.	.	.	.
.	.	.	16d#X/JJ)	.	16b\JJ)	.	.	.	.	.	.	.	.	.
!	!	!	!	!	!	!	!	!	!LO:LB:g=original	!	!	!	!	!
8BB/L	x #	.	8d#/L	.	4aa\	.	.	.	(4aa\	sa-	.	.	.	.
8C#/	.	.	8e/	.	.	.	.	.	.	.	.	.	.	.
8D#X/	.	.	8f#/	.	(16aa\LL	.	.	.	16aa\LL)	.	.	.	.	.
.	.	.	.	.	16ff#\)	.	.	.	16ff#\JJ	.	.	.	.	.
8BB/J	x 7	.	8d#/J	.	(16dd#X\	.	.	.	16dd#X\LL	-lu-	.	.	.	.
.	.	.	.	.	16b\JJ)	.	.	.	16b\JJ	.	.	.	.	.
!	!	!	!	!	!LO:LB:g=original	!	!	!	!	!	!LO:LB:g=original	!	!	!
=25	=25	=25	=25	=25	=25	=25	=25	=25	=25	=25	=25	=25	=25	=25
!LO:TX:t=P:problem=mixed beam	!	!	!	!	!	!	!	!	!	!	!	!	!	!
8B\L	7 #	.	(16b/LL	.	(16gg#X\LL	.	1ryy	1ryy	16gg#X\LL	-ta-	4r	.	1ryy	1ryy
.	.	.	16a/)	.	16ff#\)	.	.	.	16ff#\	.	.	.	.	.
8BB/	.	.	(16g#X/	.	(16ee\	.	.	.	(16ee\	.	.	.	.	.
.	.	.	16f#/JJ)	.	16dd#X\JJ)	.	.	.	16dd#X\JJ)	.	.	.	.	.
8E/J	x #	.	8g#/L	.	8ee\L	.	.	.	8ee\	-mus,	8r	.	.	.
8r	.	.	8cc#/J	.	8ee\J	.	.	.	8cc#\	in	8ee\	in	.	.
4AA/	.	.	8.cc#t\L	.	8.eeT\L	.	.	.	(8.cc#T\L	Ma-	8.eeT\L	Ma-	.	.
.	.	.	16b\Jk	.	16ddn\Jk	.	.	.	16b\Jk)	.	16dd\Jk	.	.	.
4r	.	.	8a\L	.	8cc#\L	.	.	.	8a\	-t[rem]	8cc#\	-trem	.	.
.	.	.	8cc#\J	.	16aa\L	.	.	.	16cc#\	sem-	16aa\	Sem-	.	.
.	.	.	.	.	16ee\JJ	.	.	.	16cc#\	-pi-	16ee\	-pi-	.	.
=26	=26	=26	=26	=26	=26	=26	=26	=26	=26	=26	=26	=26	=26	=26
4AA/	.	.	8.cc#t\L	.	8.eeT\L	.	1ryy	1ryy	(8.cc#t\L	-ter-	8.eeT\L	-ter-	1ryy	1ryy
.	.	.	16b\k	.	16dd\K	.	.	.	16b\Jk)	.	16dd\Jk	.	.	.
16A|\LL	.	.	8a/J	.	8cc#\J	.	.	.	8a\	-nam	8cc#\	-nam	.	.
16E|\JJ	.	.	.	.	.	.	.	.	.	.	.	.	.	.
16C#|/LL	.	.	8r	.	8r	.	.	.	8r	.	8r	.	.	.
16AA|/JJ	.	.	.	.	.	.	.	.	.	.	.	.	.	.
!	!	!	!	!	!	!	!	!	!LO:LB:g=original	!	!	!	!	!
8E\L	7 #	.	4b\	.	4dd\	.	.	.	(4b\	e-	(4dd\	e-	.	.
8G#X\	.	.	.	.	.	.	.	.	.	.	.	.	.	.
8A\	.	.	4a/	.	4cc#\	.	.	.	4a\)	.	4cc#\)	.	.	.
8c#\J	x 6	.	.	.	.	.	.	.	.	.	.	.	.	.
=27	=27	=27	=27	=27	=27	=27	=27	=27	=27	=27	=27	=27	=27	=27
!LO:TX:t=P:problem=mixed beam	!	!	!	!	!	!	!	!	!	!	!	!	!	!
8e\L	x 4	.	8a/L	.	8cc#\L	.	1ryy	1ryy	16a\	-li-	16cc#\	-li-	1ryy	1ryy
.	.	.	.	.	.	.	.	.	16a\	-gi-	16cc#\	-gi-	.	.
8E/J	x #	.	8g#X/J	.	8b\J	.	.	.	8g#X/	-mus	8b\	-mus	.	.
!	!	!	!	!	!	!LO:DY:a:Bi:t=f&colon;	!	!	!	!	!	!	!	!
4r	.	.	(16b/LL	.	(16dd\LL	f	.	.	4r	.	4r	.	.	.
.	.	.	16a/)	.	16cc#\)	.	.	.	.	.	.	.	.	.
.	.	.	(16a/	.	(16cc#\	.	.	.	.	.	.	.	.	.
.	.	.	16g#/JJ)	.	16b\JJ)	.	.	.	.	.	.	.	.	.
*	*	*	*	*	*	*	*	*	*	*ij	*	*	*	*
!LO:LB:g=original	!	!	!LO:LB:g=original	!	!	!LO:DY:a:Bi:t=p&colon;	!	!	!	!	!	!	!	!
8E\L	7 #	.	4dd\	.	4bb\	p	.	.	(4bb\	e-	(4dd\	e-	.	.
8G#X\	.	.	.	.	.	.	.	.	.	.	.	.	.	.
8A\	.	.	4cc#\	.	4aa\	.	.	.	4aa\)	.	4cc#\)	.	.	.
8c#\J	x 6	.	.	.	.	.	.	.	.	.	.	.	.	.
!	!	!	!	!	!	!	!	!	!	!	!LO:LB:g=original	!	!	!
=28	=28	=28	=28	=28	=28	=28	=28	=28	=28	=28	=28	=28	=28	=28
!LO:TX:t=P:problem=mixed beam	!	!	!	!	!	!	!	!	!	!	!	!	!	!
8e\L	x 4	.	8cc#\L	.	8aa\L	.	1ryy	1ryy	16aa\	-li-	16cc#\	-li-	1ryy	1ryy
.	.	.	.	.	.	.	.	.	16aa\	-gi-	16cc#\	-gi-	.	.
8E/J	x #	.	8b\J	.	8gg#X\J	.	.	.	8gg#X\	-mus	8b\	-mus	.	.
*	*	*	*	*	*	*	*	*	*	*Xij	*	*	*	*
!	!	!	!	!	!	!LO:DY:a:Bi:t=f&colon;	!	!	!	!	!	!	!	!
4r	.	.	(16dd\LL	.	(16bb\LL	f	.	.	4r	.	4r	.	.	.
.	.	.	16cc#\)	.	16aa\)	.	.	.	.	.	.	.	.	.
.	.	.	(16cc#\	.	(16aa\	.	.	.	.	.	.	.	.	.
.	.	.	16b\JJ)	.	16gg#\JJ)	.	.	.	.	.	.	.	.	.
*	*	*	*tuplet	*	*	*	*	*	*	*	*	*	*	*
!	!	!	!LO:TX:t=P:problem=dwie triole połączone belką	!	!LO:TX:t=P:problem=dwie triole połączone belką	!LO:DY:a:Bi:t=p&colon;	!	!	!	!	!LO:TUP:a:problem=klamra łukowa	!	!	!
8A\	.	.	24a\LL	.	24cc#\LL	p	.	.	24a\LL	Re-	24cc#\LL	Re-	.	.
.	.	.	24b\	.	24dd\	.	.	.	24b\	.	24dd\	.	.	.
.	.	.	24cc#\	.	24ee\	.	.	.	24cc#\JJ	.	24ee\JJ	.	.	.
!	!	!	!	!	!	!	!	!	!	!	!LO:TUP:a:problem=klamra łukowa	!	!	!
8r	.	.	24b\	.	24dd\	.	.	.	24b\LL	-gi-	24dd\LL	-gi-	.	.
.	.	.	24cc#\	.	24ee\	.	.	.	24cc#\	.	24ee\	.	.	.
.	.	.	24dd\JJ	.	24ff#\JJ	.	.	.	24dd\JJ	.	24ff#\JJ	.	.	.
!LO:TX:t=P:problem=mixed beam	!	!	!	!	!LO:LB:g=original	!	!	!	!	!	!	!	!	!
8A\L	.	.	(16cc#\LL	.	(16ee\LL	.	.	.	8cc#\	-na	8ee\	-na	.	.
.	.	.	16a\)	.	16cc#\)	.	.	.	.	.	.	.	.	.
8AA/J	.	.	(16cc#\	.	(16ee\	.	.	.	8r	.	8r	.	.	.
.	.	.	16a\JJ)	.	16cc#\JJ)	.	.	.	.	.	.	.	.	.
=29	=29	=29	=29	=29	=29	=29	=29	=29	=29	=29	=29	=29	=29	=29
*	*	*	*Xtuplet	*	*	*	*	*	*	*	*	*	*	*
!	!	!	!	!	!LO:TX:t=P:problem=dwie triole połączone belką	!	!	!	!	!	!LO:TUP:a:problem=klamra łukowa	!	!	!
8E\	7 #	.	(24g#X/LL	.	24b\LL	.	1ryy	1ryy	24g#X\LL	Cae-	24b\LL	Cae-	1ryy	1ryy
.	.	.	24a/)	.	24cc#\	.	.	.	24a\	.	24cc#\	.	.	.
.	.	.	(24b/	.	24dd\	.	.	.	24b\JJ	.	24dd\JJ	.	.	.
!	!	!	!	!	!	!	!	!	!	!	!LO:TUP:a:problem=klamra łukowa	!	!	!
8r	.	.	24a/)	.	24cc#\	.	.	.	24a\LL	-lo-	24cc#\LL	-lo-	.	.
.	.	.	(24b/	.	24dd\	.	.	.	24b\	.	24dd\	.	.	.
.	.	.	24cc#/JJ)	.	24ee\JJ	.	.	.	24cc#\JJ	.	24ee\JJ	.	.	.
!LO:TX:t=P:problem=mixed beam	!	!	!	!	!	!	!	!	!	!	!	!	!	!
8E\L	.	.	(16b/LL	.	(16dd\LL	.	.	.	8b\	-rum	8dd\	-rum	.	.
.	.	.	16g#/)	.	16b\)	.	.	.	.	.	.	.	.	.
8EE/J	.	.	(16b/	.	(16dd\	.	.	.	8r	.	8r	.	.	.
.	.	.	16g#/JJ)	.	16b\JJ)	.	.	.	.	.	.	.	.	.
*	*	*	*tuplet	*	*	*	*	*	*	*	*	*	*	*
!	!	!	!LO:TX:t=P:problem=dwie triole połączone belką	!	!LO:TX:t=P:problem=dwie triole połączone belką	!	!	!	!LO:LB:g=original	!	!LO:TUP:a:problem=klamra łukowa	!	!	!
8A\	.	.	24cc#\LL	.	24a\LL	.	.	.	24cc#\LL	Re-	24a\LL	Re-	.	.
.	.	.	24dd\	.	24b\	.	.	.	24dd\	.	24b\	.	.	.
.	.	.	24ee\	.	24cc#\	.	.	.	24ee\JJ	.	24cc#\JJ	.	.	.
!	!	!	!	!	!	!	!	!	!	!	!LO:TUP:a:problem=klamra łukowa	!	!	!
8r	.	.	24dd\	.	24b\	.	.	.	24dd\LL	-gi-	24b\LL	-gi-	.	.
.	.	.	24ee\	.	24cc#\	.	.	.	24ee\	.	24cc#\	.	.	.
.	.	.	24ff#\JJ	.	24dd\JJ	.	.	.	24ff#\JJ	.	24dd\JJ	.	.	.
!LO:TX:t=P:problem=mixed beam	!	!	!	!	!	!	!	!	!	!	!	!	!	!
8A\L	.	.	(16ee\LL	.	(16cc#\LL	.	.	.	8ee\	-na	8cc#\	-na	.	.
.	.	.	16cc#\)	.	16a\)	.	.	.	.	.	.	.	.	.
8AA/J	.	.	(16ee\	.	(16cc#\	.	.	.	8r	.	8r	.	.	.
.	.	.	16cc#\JJ)	.	16a\JJ)	.	.	.	.	.	.	.	.	.
=30	=30	=30	=30	=30	=30	=30	=30	=30	=30	=30	=30	=30	=30	=30
!	!	!	!LO:TX:t=P:problem=dwie triole połączone belką	!	!LO:TX:t=P:problem=dwie triole połączone belką	!	!	!	!	!	!LO:TUP:a:problem=klamra łukowa	!	!	!
8E\	7 #	.	24b\LL	.	24g#X/LL	.	1ryy	1ryy	24b\LL	Cae-	24g#X\LL	Cae-	1ryy	1ryy
.	.	.	24cc#\	.	24a/	.	.	.	24cc#\	.	24a\	.	.	.
.	.	.	24dd\	.	24b/	.	.	.	24dd\JJ	.	24b\JJ	.	.	.
!	!	!	!	!	!	!	!	!	!	!	!LO:TUP:a:problem=klamra łukowa	!	!	!
8r	.	.	24cc#\	.	24a/	.	.	.	24cc#\LL	-lo-	24a\LL	-lo-	.	.
.	.	.	24dd\	.	24b/	.	.	.	24dd\	.	24b\	.	.	.
.	.	.	24ee\JJ	.	24cc#/JJ	.	.	.	24ee\JJ	.	24cc#\JJ	.	.	.
!LO:TX:t=P:problem=mixed beam	!	!	!LO:LB:g=original	!	!	!	!	!	!	!	!LO:LB:g=original	!	!	!
8E\L	.	.	(16dd\LL	.	(16b/LL	.	.	.	8dd\	-rum	8b\	-rum	.	.
.	.	.	16b\)	.	16g#X/)	.	.	.	.	.	.	.	.	.
8EE/J	.	.	(16dd\	.	(16b/	.	.	.	8r	.	8r	.	.	.
.	.	.	16b\JJ)	.	16g#/JJ)	.	.	.	.	.	.	.	.	.
4AA/	.	.	2r	.	8aaT\L	.	.	.	8.aaT\L	ac	2r	.	.	.
.	.	.	.	.	(16gg#X\L	.	.	.	.	.	.	.	.	.
.	.	.	.	.	16ff#\JJ)	.	.	.	(32gg#X\LL	.	.	.	.	.
.	.	.	.	.	.	.	.	.	32ff#\JJJ)	.	.	.	.	.
!	!	!	!	!	!LO:TX:t=P:problem=dwie triole połączone belką	!	!	!	!	!	!	!	!	!
4r	.	.	.	.	24ee\LL	.	.	.	24ee\LL	An-	.	.	.	.
.	.	.	.	.	24dd\	.	.	.	24dd\	.	.	.	.	.
.	.	.	.	.	24ee\	.	.	.	24ee\JJ	.	.	.	.	.
.	.	.	.	.	24ff#\	.	.	.	24ff#\LL	-ge-	.	.	.	.
.	.	.	.	.	24ee\	.	.	.	24ee\	.	.	.	.	.
.	.	.	.	.	24dd\JJ	.	.	.	24dd\JJ	.	.	.	.	.
!	!	!	!	!	!LO:LB:g=original	!	!	!	!	!	!	!	!	!
=31	=31	=31	=31	=31	=31	=31	=31	=31	=31	=31	=31	=31	=31	=31
4AA/	.	.	8.aaT\L	.	8.ff#t\L	.	1ryy	1ryy	8.ff#t\L	-lo-	8.aa\L	ac	1ryy	1ryy
.	.	.	(32gg#X\LL	.	(32ee\LL	.	.	.	(32ee\LL	.	32gg#X\LL	.	.	.
.	.	.	32ff#\JJJ)	.	32dd\JJJ)	.	.	.	32dd\JJJ)	.	32ff#\JJJ	.	.	.
!	!	!	!	!	!LO:TX:t=P:problem=dwie triole połączone belką	!	!	!	!	!	!LO:TUP:a:problem=klamra łukowa	!	!	!
4r	.	.	24ee\LL	.	24cc#\LL	.	.	.	24cc#\LL	.	24ee\LL	An-	.	.
.	.	.	24dd\	.	24b\	.	.	.	24b\	.	24dd\	.	.	.
!	!	!	!LO:TX:a:t=e	!	!	!	!	!	!	!	!	!	!	!
.	.	.	24ee\JJ	.	24cc#\	.	.	.	24cc#\	.	24ee\JJ	.	.	.
!	!	!	!	!	!	!	!	!	!	!	!LO:TUP:a:problem=klamra łukowa	!	!	!
.	.	.	24ff#\LL	.	24dd\	.	.	.	24dd\	.	24ff#\LL	-ge-	.	.
.	.	.	24ee\	.	24cc#\	.	.	.	24cc#\	.	24ee\	.	.	.
.	.	.	24dd\JJ	.	24b\JJ	.	.	.	24b\JJ	.	24dd\JJ	.	.	.
8A\L	.	.	8cc#/L	.	4a/	.	.	.	(4a\	.	4cc#\	-lo-	.	.
16C#\L	6 3	.	8a/	.	.	.	.	.	.	.	.	.	.	.
16D\JJ	.	.	.	.	.	.	.	.	.	.	.	.	.	.
!LO:TX:t=P:problem=mixed beam	!	!	!	!	!	!	!	!	!	!	!	!	!	!
8E\L	x 4	.	8a/	.	4bT\	.	.	.	4g#Xt\)	.	4bT\	.	.	.
8EE/J	.	.	8g#X/J	.	.	.	.	.	.	.	.	.	.	.
!LO:LB:g=original	!	!	!	!	!	!	!	!	!LO:LB:g=original	!	!	!	!	!
=32	=32	=32	=32	=32	=32	=32	=32	=32	=32	=32	=32	=32	=32	=32
*tremolo	*	*	*	*	*	*	*	*	*	*	*	*	*	*
!	!	!LO:DY:a:Bi:t=Forte.	!	!LO:DY:a:Bi:t=Forte	!	!	!	!	!	!	!	!	!	!
8AA/L	.	f	(16a/LL	f	(16a/LL	.	1ryy	1ryy	4a\	-rum,	4a\	-rum,	1ryy	1ryy
.	.	.	16c#/)	.	16e/)	.	.	.	.	.	.	.	.	.
8AA/	.	.	(16a/	.	(16cc#/	.	.	.	.	.	.	.	.	.
.	.	.	16e/JJ)	.	16a/JJ)	.	.	.	.	.	.	.	.	.
8AA/	.	.	8cc#|/L	.	8ee|\L	.	.	.	4r	.	4r	.	.	.
8AA/J	.	.	(16a/L	.	(16cc#\L	.	.	.	.	.	.	.	.	.
.	.	.	16e/JJ)	.	16a\JJ)	.	.	.	.	.	.	.	.	.
*Xtremolo	*	*	*	*	*	*	*	*	*	*	*	*	*	*
8D\L	6 3	.	(16f#/LL	.	(16dd\LL	.	.	.	2r	.	2r	.	.	.
.	.	.	16d/)	.	16b\)	.	.	.	.	.	.	.	.	.
8E\J	x #	.	(16B/	.	(16g#X\	.	.	.	.	.	.	.	.	.
.	.	.	16d/JJ)	.	16b\JJ)	.	.	.	.	.	.	.	.	.
8AA/L	.	.	8c#/	.	4a/	.	.	.	.	.	.	.	.	.
16C#/L	x 6	.	8r	.	.	.	.	.	.	.	.	.	.	.
16E/JJ	.	.	.	.	.	.	.	.	.	.	.	.	.	.
=33	=33	=33	=33	=33	=33	=33	=33	=33	=33	=33	=33	=33	=33	=33
!	!	!	!	!	!	!	!	!	!	!	!LO:TX:a:t=4	!	!	!
8D\L	.	.	(16a/LL	.	(16dd\LL	.	1ryy	1ryy	00r	.	00r	.	1ryy	1ryy
.	.	.	16f#/)	.	16a\)	.	.	.	.	.	.	.	.	.
8D\	.	.	(16dd/	.	(16ff#\	.	.	.	.	.	.	.	.	.
.	.	.	16a/JJ)	.	16dd\JJ)	.	.	.	.	.	.	.	.	.
8D\	.	.	8ff#|\L	.	8aa\L	.	.	.	.	.	.	.	.	.
8D\J	.	.	(16dd\L	.	(16ff#\L	.	.	.	.	.	.	.	.	.
.	.	.	16a\JJ)	.	16dd\JJ)	.	.	.	.	.	.	.	.	.
8G\L	6 3	.	(16b/LL	.	(16gg\LL	.	.	.	.	.	.	.	.	.
.	.	.	16g/)	.	16ee\)	.	.	.	.	.	.	.	.	.
8A\J	x 7	.	(16e/	.	(16cc#\	.	.	.	.	.	.	.	.	.
.	.	.	16g/JJ)	.	16ee\JJ)	.	.	.	.	.	.	.	.	.
!LO:TX:t=P:problem=mixed beam	!	!	!	!	!	!	!	!	!	!	!	!	!	!
.	.	.	.	.	8qqee/	.	.	.	.	.	.	.	.	.
8d\L	.	.	4f#/	.	4dd\	.	.	.	.	.	.	.	.	.
8D/J	.	.	.	.	.	.	.	.	.	.	.	.	.	.
!	!	!	!LO:LB:g=original	!	!	!	!	!	!	!	!	!	!	!
=34	=34	=34	=34	=34	=34	=34	=34	=34	=34	=34	=34	=34	=34	=34
!	!	!	!	!	!LO:TX:t=P:problem=mixed beam	!	!	!	!	!	!	!	!	!
8AA/L	x 7_	.	8cc#\L	.	8a/L	.	1ryy	1ryy	.	.	.	.	1ryy	1ryy
8BB/	.	.	8.ee\J	.	8.gg\J	.	.	.	.	.	.	.	.	.
8C#/	.	.	.	.	.	.	.	.	.	.	.	.	.	.
!	!	!	!LO:TX:t=P:problem=mixed beam	!	!	!	!	!	!	!	!	!	!	!
.	.	.	16cc#\LL	.	16ee\LL	.	.	.	.	.	.	.	.	.
8D/J	x x	.	16dd\	.	16ff#\	.	.	.	.	.	.	.	.	.
.	.	.	16f#/JJ	.	16dd\JJ	.	.	.	.	.	.	.	.	.
!LO:TX:t=P:problem=mixed beam	!	!	!	!	!LO:LB:g=original	!	!	!	!	!	!	!	!	!
8A\L	.	.	16e/LL	.	16cc#\LL	.	.	.	.	.	.	.	.	.
.	.	.	16f#/	.	16dd\	.	.	.	.	.	.	.	.	.
8AA/J	.	.	16g/	.	16ee\	.	.	.	.	.	.	.	.	.
.	.	.	16e/JJ	.	16cc#\JJ	.	.	.	.	.	.	.	.	.
.	.	.	.	.	8qqcc#/	.	.	.	.	.	.	.	.	.
!LO:TX:t=P:problem=mixed beam	!	!	!	!	!	!	!	!	!	!	!	!	!	!
8D\L	.	.	4f#/	.	4dd\	.	.	.	.	.	.	.	.	.
8DD/J	.	.	.	.	.	.	.	.	.	.	.	.	.	.
=35	=35	=35	=35	=35	=35	=35	=35	=35	=35	=35	=35	=35	=35	=35
8AA/L	x 7_	.	8c#/L	.	8A/L	.	1ryy	1ryy	.	.	.	.	1ryy	1ryy
8E/	.	.	8.e/J	.	8.g/J	.	.	.	.	.	.	.	.	.
8C#/	.	.	.	.	.	.	.	.	.	.	.	.	.	.
.	.	.	16c#/LL	.	16e/LL	.	.	.	.	.	.	.	.	.
8D/J	5 3	.	16d/	.	16f#/	.	.	.	.	.	.	.	.	.
.	.	.	16A/JJ	.	16d/JJ	.	.	.	.	.	.	.	.	.
!LO:TX:t=P:problem=mixed beam	!	!	!	!	!	!	!	!	!	!	!	!	!	!
8A\L	.	.	16e/LL	.	16c#/LL	.	.	.	.	.	.	.	.	.
.	.	.	16f#/	.	16d/	.	.	.	.	.	.	.	.	.
8AA/J	.	.	16g/	.	16e/	.	.	.	.	.	.	.	.	.
.	.	.	16e/JJ	.	16c#/JJ	.	.	.	.	.	.	.	.	.
!LO:TX:t=P:problem=mixed beam	!	!	!	!	!	!	!	!	!	!	!	!	!	!
8D\L	.	.	4f#/	.	4d/	.	.	.	.	.	.	.	.	.
8DD/J	.	.	.	.	.	.	.	.	.	.	.	.	.	.
=36	=36	=36	=36	=36	=36	=36	=36	=36	=36	=36	=36	=36	=36	=36
!	!	!	!	!	!LO:TX:t=P:problem=dwie triole połączone belką	!	!	!	!	!	!	!	!	!
8D\L	.	.	8aL 8d/	.	24ddd\LL	.	1ryy	1ryy	.	.	.	.	1ryy	1ryy
.	.	.	.	.	24ccc#\	.	.	.	.	.	.	.	.	.
.	.	.	.	.	24bb\	.	.	.	.	.	.	.	.	.
8D\	.	.	8a 8d/	.	24aa\	.	.	.	.	.	.	.	.	.
.	.	.	.	.	24gg\	.	.	.	.	.	.	.	.	.
.	.	.	.	.	24ff#\JJ	.	.	.	.	.	.	.	.	.
!	!	!	!	!	!LO:TX:t=P:problem=dwie triole połączone belką	!	!	!	!	!	!	!	!	!
8G\	.	.	8b 8d/	.	24bb\LL	.	.	.	.	.	.	.	.	.
.	.	.	.	.	24aa\	.	.	.	.	.	.	.	.	.
.	.	.	.	.	24gg\	.	.	.	.	.	.	.	.	.
8G\J	.	.	8bJ 8d/	.	24ff#\	.	.	.	.	.	.	.	.	.
.	.	.	.	.	24ee\	.	.	.	.	.	.	.	.	.
.	.	.	.	.	24dd\JJ	.	.	.	.	.	.	.	.	.
!LO:TX:t=P:problem=mixed beam	!	!	!	!	!	!	!	!	!	!	!	!	!	!
8A\L	.	.	8a\L	.	4a/	.	.	.	.	.	.	.	.	.
8G\	x 4	.	8dd\	.	.	.	.	.	.	.	.	.	.	.
8A\	x 3	.	8dd\	.	4eeT\	.	.	.	.	.	.	.	.	.
8AA/J	.	.	8cc#\J	.	.	.	.	.	.	.	.	.	.	.
!LO:LB:g=original	!	!	!	!	!	!	!	!	!	!	!	!	!	!
=37	=37	=37	=37	=37	=37	=37	=37	=37	=37	=37	=37	=37	=37	=37
!	!	!LO:DY:a:Bi:t=Piano.	!	!LO:DY:a:Bi:t=Piano.	!	!LO:DY:a:Bi:t=piano.	!	!	!	!	!	!	!	!
8D\L	.	p	(16a\LL	p	(16dd\LL	p	1ryy	1ryy	0r	.	(16dd\LL	Te	1ryy	1ryy
.	.	.	16f#\)	.	16a\)	.	.	.	.	.	16a\)	.	.	.
8D\	.	.	(16dd\	.	(16ff#\	.	.	.	.	.	(16ff#\	.	.	.
.	.	.	16a\JJ)	.	16dd\JJ)	.	.	.	.	.	16dd\JJ)	.	.	.
8D\	.	.	8ff#\L	.	8aa\L	.	.	.	.	.	8aa|\	To-	.	.
8D\J	.	.	(16dd\L	.	16ff#\L	.	.	.	.	.	(16ff#\LL	-tus	.	.
.	.	.	16a\JJ)	.	16dd\JJ	.	.	.	.	.	16dd\JJ)	.	.	.
8G\L	6 3	.	(16b/LL	.	(16gg\LL	.	.	.	.	.	(16gg\LL	Cho-	.	.
.	.	.	16g/)	.	16ee\)	.	.	.	.	.	16ee\	.	.	.
8A\J	.	.	(16e/	.	(16cc#\	.	.	.	.	.	16cc#\	.	.	.
.	.	.	16g/JJ)	.	16ee\JJ)	.	.	.	.	.	16ee\JJ)	.	.	.
8D\L	.	.	4f#/	.	4dd\	.	.	.	.	.	4dd\	-rus	.	.
16F#\L	x 6	.	.	.	.	.	.	.	.	.	.	.	.	.
16A\JJ	.	.	.	.	.	.	.	.	.	.	.	.	.	.
!	!	!	!LO:LB:g=original	!	!	!	!	!	!	!	!LO:LB:g=original	!	!	!
=38	=38	=38	=38	=38	=38	=38	=38	=38	=38	=38	=38	=38	=38	=38
!LO:TX:t=P:problem=mixed beam	!	!	!	!	!	!	!	!	!	!	!	!	!	!
8d\L	.	.	8f#/L	.	8aa\	.	1ryy	1ryy	.	.	16aa\LL	An-	1ryy	1ryy
.	.	.	.	.	.	.	.	.	.	.	(16gg\	.	.	.
16D/L	.	.	8g/	.	(4dd\	.	.	.	.	.	16ff#\	.	.	.
16E/JJ	.	.	.	.	.	.	.	.	.	.	16ee\JJ)	.	.	.
8F#\L	x 64	.	8a/	.	.	.	.	.	.	.	4dd\	.	.	.
8D\J	x 3	.	8f#/J	.	8ccn\)	.	.	.	.	.	.	.	.	.
!LO:TX:t=P:problem=mixed beam	!	!	!	!	!	!	!	!	!	!	!	!	!	!
8G\L	.	.	8dL 8B/	.	24b\LL	.	.	.	.	.	8ccn\	-ge-	.	.
.	.	.	.	.	24cc\	.	.	.	.	.	.	.	.	.
.	.	.	.	.	24dd\J	.	.	.	.	.	.	.	.	.
!	!	!	!	!	!	!	!	!	!	!	!LO:TUP:a:problem=klamra łukowa	!	!	!
8GG/J	.	.	8dJ 8B/	.	8g\J	.	.	.	.	.	24b\LL	-lo-	.	.
.	.	.	.	.	.	.	.	.	.	.	24cc\	.	.	.
.	.	.	.	.	.	.	.	.	.	.	24dd\JJ	.	.	.
!	!	!	!	!	!LO:TX:b:t=volti citiſ	!	!	!	!	!	!	!	!	!
16G\LL	.	.	4r	.	4r	.	.	.	.	.	8g\	-rum	.	.
16A|\	.	.	.	.	.	.	.	.	.	.	.	.	.	.
16G|\	.	.	.	.	.	.	.	.	.	.	8r	.	.	.
16F#\JJ	x 6\	.	.	.	.	.	.	.	.	.	.	.	.	.
!	!	!	!	!	!LO:PB:g=original	!	!	!	!	!	!	!	!	!
=39	=39	=39	=39	=39	=39	=39	=39	=39	=39	=39	=39	=39	=39	=39
*tremolo	*	*	*	*	*	*	*	*	*	*	*	*	*	*
!	!	!	!	!	!	!	!	!	!	!	!LO:TX:a:t=2	!	!	!
8E\L	.	.	(16b\LL	.	(16ee\LL	.	1ryy	1ryy	(16ee\LL	Te	0r	.	1ryy	1ryy
.	.	.	16g#X\)	.	16b\)	.	.	.	16b\)	.	.	.	.	.
8E\	.	.	(16ee\	.	(16gg#X\	.	.	.	(16gg#X\	.	.	.	.	.
.	.	.	16b\JJ)	.	16ee\JJ)	.	.	.	16ee\JJ)	.	.	.	.	.
8E\	.	.	8gg#X|\L	.	8bb|\L	.	.	.	8bb\	to-	.	.	.	.
8E\J	.	.	(16ee\L	.	(16gg#\L	.	.	.	(16gg#\LL	-tus	.	.	.	.
.	.	.	16b\JJ)	.	16ee\JJ)	.	.	.	16ee\JJ)	.	.	.	.	.
*Xtremolo	*	*	*	*	*	*	*	*	*	*	*	*	*	*
8A\L	6 3	.	16cc#\LL	.	(16aa\LL	.	.	.	(16aa\LL	Cho-	.	.	.	.
.	.	.	16a\	.	16ff#\)	.	.	.	16ff#\)	.	.	.	.	.
8B\J	x #	.	16f#\	.	(16dd#X\	.	.	.	(16dd#X\	.	.	.	.	.
.	.	.	16a\JJ	.	16ff#\JJ)	.	.	.	16ff#\JJ)	.	.	.	.	.
8E\L	.	.	4g#/	.	4ee\	.	.	.	4ee\	-rus	.	.	.	.
16G#X\L	x 6	.	.	.	.	.	.	.	.	.	.	.	.	.
16B\JJ	.	.	.	.	.	.	.	.	.	.	.	.	.	.
=40	=40	=40	=40	=40	=40	=40	=40	=40	=40	=40	=40	=40	=40	=40
8E\L	x #	.	8g#X/L	.	8bb\	.	1ryy	1ryy	32bb\LL	San-	.	.	1ryy	1ryy
.	.	.	.	.	.	.	.	.	32aa\	.	.	.	.	.
.	.	.	.	.	.	.	.	.	(32gg#X\	.	.	.	.	.
.	.	.	.	.	.	.	.	.	32ff#\JJ)	.	.	.	.	.
.	.	.	.	.	8qqff#/	.	.	.	.	.	.	.	.	.
8F#\	.	.	8a/	.	4ee\	.	.	.	(4ee\	.	.	.	.	.
.	.	.	.	.	.	.	.	.	.	.	.	.	.	.
8G#X\	.	.	8b/	.	.	.	.	.	.	.	.	.	.	.
8E\J	x 7	.	8g#/J	.	8dd\	.	.	.	8dd\)	.	.	.	.	.
!LO:TX:t=P:problem=mixed beam	!	!	!	!	!	!	!	!	!	!	!	!	!	!
8A\L	.	.	8eL 8c#/	.	24cc#\LL	.	.	.	24cc#\LL	-cto-	.	.	.	.
.	.	.	.	.	24dd\	.	.	.	24dd\	.	.	.	.	.
.	.	.	.	.	24ee\J	.	.	.	24ee\JJ	.	.	.	.	.
8AA/J	.	.	8eJ 8c#/	.	8a\J	.	.	.	8a\	-rum	.	.	.	.
.	.	.	.	.	.	.	.	.	.	.	.	.	.	.
.	.	.	.	.	.	.	.	.	.	.	.	.	.	.
!	!	!	!	!	!	!LO:DY:a	!	!	!	!	!	!	!	!
4r	.	.	(16cc#\LL	.	(16ee\LL	f	.	.	4r	.	.	.	.	.
.	.	.	16dd\)	.	16ff#\)	.	.	.	.	.	.	.	.	.
.	.	.	(16dd\	.	(16ff#\	.	.	.	.	.	.	.	.	.
.	.	.	16ee\JJ)	.	16gg\JJ)	.	.	.	.	.	.	.	.	.
!LO:LB:g=original	!	!	!	!	!	!	!	!	!LO:LB:g=original	!	!	!	!	!
=41	=41	=41	=41	=41	=41	=41	=41	=41	=41	=41	=41	=41	=41	=41
!LO:TX:t=P:problem=mixed beam	!	!	!	!	!	!LO:DY:a:Bi:t=p&colon;	!	!	!	!	!	!	!	!
8A\L	x 7	.	8.ee\L	.	8.gg\L	p	1ryy	1ryy	(8.ee\L	pi-	(8.gg\L	be-	1ryy	1ryy
8AA/J	.	.	.	.	.	.	.	.	.	.	.	.	.	.
.	.	.	16cc#\Jk	.	16ee\K	.	.	.	16cc#\Jk)	.	16ee\Jk)	.	.	.
!	!	!	!LO:TX:t=P:problem=mixed beam	!	!	!	!	!	!	!	!	!	!	!
8D\L	x 6	.	8dd\L	.	8ff#\	.	.	.	8dd\	-e	(8.ff#\L	-ne-	.	.
8F#\J	x 7	.	8f#/J	.	8dd\J	.	.	.	8f#/	Sa-	.	.	.	.
.	.	.	.	.	.	.	.	.	.	.	16dd\Jk)	.	.	.
!LO:TX:t=P:problem=mixed beam	!	!	!LO:TUP:b	!	!	!	!	!	!LO:TUP:b	!	!LO:TUP:a:problem=klamra łukowa	!	!	!
8A\L	.	.	24e/LL	.	24cc#\LL	.	.	.	24e/LL	-lu-	24cc#X\LL	-ven-	.	.
.	.	.	24f#/	.	24dd\	.	.	.	24f#/	.	24dd\	.	.	.
.	.	.	24g/J	.	24ee\J	.	.	.	24g/JJ	.	24ee\JJ	.	.	.
8d\	.	.	8f#/J	.	8dd\J	.	.	.	8f#/	-tat,	8dd\	-tat	.	.
8D/J	.	.	8r	.	8r	.	.	.	8r	.	8r	.	.	.
!	!	!	!LO:TX:b:t=volti citiſ	!	!	!	!	!	!	!	!	!	!	!
8r	.	.	8a/	.	8ff#\	.	.	.	8a\	nos	8ff#\	nos	.	.
!	!	!	!LO:PB:g=original	!	!LO:LB:g=original	!	!	!	!	!	!	!	!	!
=42	=42	=42	=42	=42	=42	=42	=42	=42	=42	=42	=42	=42	=42	=42
4D\	.	.	8.aT/L	.	8.ff#t\L	.	1ryy	1ryy	(8.a\L	qvo-	8.ff#\L	qvo-	1ryy	1ryy
.	.	.	16g/K	.	16ee\K	.	.	.	16g\Jk)	.	16ee\Jk	.	.	.
4r	.	.	8f#/	.	8dd\	.	.	.	8f#/	-qve	8dd\	-qve	.	.
.	.	.	8a/J	.	8ff#\J	.	.	.	8a\	pi-	8ff#\	pi-	.	.
4D\	.	.	8.aT/L	.	8.ff#t\L	.	.	.	8.a\	-iſ-	8.ff#\	-iſ-	.	.
.	.	.	16g/Jk	.	16ee\Jk	.	.	.	16g\	-si-	16ee\	si	.	.
16d|\LL	.	.	4f#/	.	4dd\	.	.	.	8f#/	-me	8dd\	m[e]	.	.
16A|\	.	.	.	.	.	.	.	.	.	.	.	.	.	.
!	!	!	!	!	!	!	!	!	!	!	!LO:TX:t=P:problem=niekompletne źródło	!	!	!
16F#|\	.	.	.	.	.	.	.	.	8r	.	8ryy	.	.	.
16D|\JJ	.	.	.	.	.	.	.	.	.	.	.	.	.	.
!	!	!	!	!	!	!	!	!	!	!	!LO:LB:g=original	!	!	!
=43	=43	=43	=43	=43	=43	=43	=43	=43	=43	=43	=43	=43	=43	=43
.	.	.	8qqa/	.	.	.	.	.	.	.	.	.	.	.
8AA/L	x 7_	.	4g/	.	4ee\	.	1ryy	1ryy	(4g/	gra-	(4ee\	gra-	1ryy	1ryy
8C#/	.	.	.	.	.	.	.	.	.	.	.	.	.	.
8D/	.	.	4f#/	.	4dd\	.	.	.	4f#/)	.	4dd\)	.	.	.
8F#/J	x 6	.	.	.	.	.	.	.	.	.	.	.	.	.
!LO:TX:t=P:problem=mixed beam	!	!	!	!	!	!	!	!	!	!	!	!	!	!
8A\L	6 4	.	8f#t/L	.	8ddT\L	.	.	.	16f#/	.	16dd\	.	.	.
.	.	.	.	.	.	.	.	.	16f#/	-ti-	16dd\	-ti-	.	.
8AA/J	5 3	.	8e/J	.	8cc#\J	.	.	.	8e/	-ae	8cc#\	-ae	.	.
!	!	!	!	!	!	!LO:DY:a:Bi:t=f&colon;	!	!	!	!	!	!	!	!
4r	.	.	(16g/LL	.	(16ee\LL	f	.	.	4r	.	4r	.	.	.
.	.	.	16f#/)	.	16dd\)	.	.	.	.	.	.	.	.	.
.	.	.	(16f#/	.	(16dd\	.	.	.	.	.	.	.	.	.
.	.	.	16e/JJ)	.	16cc#\JJ)	.	.	.	.	.	.	.	.	.
!	!	!	!	!	!	!	!	!	!LO:LB:g=original	!	!	!	!	!
=44	=44	=44	=44	=44	=44	=44	=44	=44	=44	=44	=44	=44	=44	=44
!	!	!	!	!	!	!LO:DY:a:Bi:t=p&colon;	!	!	!	!	!	!	!	!
8AA/L	x 7	.	4ee\	.	4gg\	p	1ryy	1ryy	(4gg\	Cle-	(4ee\	Cle-	1ryy	1ryy
8C#/	.	.	.	.	.	.	.	.	.	.	.	.	.	.
8D/	.	.	4dd\	.	4ff#\	.	.	.	4ff#\)	.	4dd\)	.	.	.
8F#/J	x 6	.	.	.	.	.	.	.	.	.	.	.	.	.
!LO:TX:t=P:problem=mixed beam	!	!	!	!	!	!	!	!	!	!	!	!	!	!
8A\L	x 4	.	8ddT\L	.	8ff#t\L	.	.	.	16ff#\	-men-	16dd\	-men-	.	.
.	.	.	.	.	.	.	.	.	16ff#\	-ti-	16dd\	-ti-	.	.
8AA/J	x 3	.	8cc#\J	.	8ee\J	.	.	.	8ee\	-ae	8cc#|\	-ae	.	.
!	!	!	!	!	!	!LO:DY:a:Bi:t=f&colon;	!	!	!	!	!	!	!	!
4r	.	.	(16ee\LL	.	(16gg\LL	f	.	.	4r	.	4r	.	.	.
.	.	.	16dd\)	.	16ff#\)	.	.	.	.	.	.	.	.	.
.	.	.	(16dd\	.	(16ff#\	.	.	.	.	.	.	.	.	.
.	.	.	16cc#\JJ)	.	16ee\JJ)	.	.	.	.	.	.	.	.	.
=45	=45	=45	=45	=45	=45	=45	=45	=45	=45	=45	=45	=45	=45	=45
*	*	*	*	*	*	*	*	*	*	*	*Xtuplet	*	*	*
!	!	!	!LO:TX:t=P:problem=dwie triole połączone belką	!	!LO:TX:t=P:problem=dwie triole połączone belką	!LO:DY:a:Bi:t=p&colon;	!	!	!LO:TX:t=P:problem=dwie triole połączone belką	!	!LO:TUP:a:problem=klamra łukowa	!	!	!
8D/	.	.	24dd\LL	.	24ff#\LL	p	1ryy	1ryy	24dd\LL	Ma-	24ff#\LL	Ma-	1ryy	1ryy
.	.	.	24ee\	.	24gg\	.	.	.	24ee\	.	24gg\	.	.	.
.	.	.	24ff#\	.	24aa\	.	.	.	24ff#\	.	24aa\JJ	.	.	.
8r	.	.	24ee\	.	24gg\	.	.	.	24ee\	.	24gg\LL	.	.	.
.	.	.	24ff#\	.	24aa\	.	.	.	24ff#\	.	24aa\	.	.	.
.	.	.	24gg\JJ	.	24bb\JJ	.	.	.	24gg\JJ	.	24bb\JJ	.	.	.
!LO:TX:t=P:problem=mixed beam	!	!	!	!	!	!	!	!	!	!	!	!	!	!
8d\L	.	.	(16ff#\LL	.	(16aa\LL	.	.	.	8ff#\	-trem	8aa\	-trem	.	.
.	.	.	16dd\)	.	16ff#\)	.	.	.	.	.	.	.	.	.
8D/J	.	.	(16ff#\	.	(16aa\	.	.	.	8r	.	8r	.	.	.
.	.	.	16dd\JJ)	.	16ff#\JJ)	.	.	.	.	.	.	.	.	.
*	*	*	*	*	*	*	*	*	*	*	*tuplet	*	*	*
!	!	!	!LO:LB:g=original	!	!	!	!	!	!	!	!	!	!	!
!LO:LB:g=original	!	!	!LO:TX:t=P:problem=dwie triole połączone belką	!	!LO:TX:t=P:problem=dwie triole połączone belką	!	!	!	!	!	!LO:TUP:a:problem=klamra łukowa	!	!	!
8AA/	x 7	.	24cc#\LL	.	24ee\LL	.	.	.	24cc#\LL	ae-	24ee\LL	ae-	.	.
.	.	.	24dd\	.	24ff#\	.	.	.	24dd\	.	24ff#\	.	.	.
.	.	.	24ee\	.	24gg\	.	.	.	24ee\JJ	.	24gg\JJ	.	.	.
8r	.	.	24dd\	.	24ff#\	.	.	.	24dd\LL	-ter-	24ff#\LL	-ter-	.	.
.	.	.	24ee\	.	24gg\	.	.	.	24ee\	.	24gg\	.	.	.
.	.	.	24ff#\JJ	.	24aa\JJ	.	.	.	24ff#\JJ	.	24aa\JJ	.	.	.
!LO:TX:t=P:problem=mixed beam	!	!	!	!	!LO:LB:g=original	!	!	!	!	!	!	!	!	!
8A\L	.	.	(16ee\LL	.	(16gg\LL	.	.	.	8ee\	-nam	8gg\	-nam	.	.
.	.	.	16cc#\)	.	16ee\)	.	.	.	.	.	.	.	.	.
8AA/J	.	.	(16ee\	.	(16gg\	.	.	.	8r	.	8r	.	.	.
.	.	.	16cc#\JJ)	.	16ee\JJ)	.	.	.	.	.	.	.	.	.
!	!	!	!	!	!	!	!	!	!	!	!LO:LB:g=original	!	!	!
=46	=46	=46	=46	=46	=46	=46	=46	=46	=46	=46	=46	=46	=46	=46
!	!	!	!LO:TX:t=P:problem=dwie triole połączone belką	!	!LO:TX:t=P:problem=dwie triole połączone belką	!	!	!	!LO:TX:t=P:problem=dwie triole połączone belką	!	!LO:TUP:a:problem=klamra łukowa	!	!	!
8D/	.	.	24ff#\LL	.	24dd\LL	.	1ryy	1ryy	24ff#\LL	Ma-	24dd\LL	Ma-	1ryy	1ryy
.	.	.	24gg\	.	24ee\	.	.	.	24gg\	.	24ee\	.	.	.
.	.	.	24aa\	.	24ff#\	.	.	.	24aa\	.	24ff#\JJ	.	.	.
!	!	!	!	!	!	!	!	!	!	!	!LO:TUP:a:problem=klamra łukowa	!	!	!
8r	.	.	24gg\	.	24ee\	.	.	.	24gg\	.	24ee\LL	.	.	.
.	.	.	24aa\	.	24ff#\	.	.	.	24aa\	.	24ff#\	.	.	.
.	.	.	24bb\JJ	.	24gg\JJ	.	.	.	24bb\JJ	.	24gg\JJ	.	.	.
!LO:TX:t=P:problem=mixed beam	!	!	!	!	!	!	!	!	!	!	!	!	!	!
8d\L	.	.	(16aa\LL	.	(16ff#\LL	.	.	.	8aa\	-trem	8ff#\	-trem	.	.
.	.	.	16ff#\)	.	16dd\)	.	.	.	.	.	.	.	.	.
8D/J	.	.	(16aa\	.	(16ff#\	.	.	.	8r	.	8r	.	.	.
.	.	.	16ff#\JJ)	.	16dd\JJ)	.	.	.	.	.	.	.	.	.
!	!	!	!LO:TX:t=P:problem=dwie triole połączone belką	!	!LO:TX:t=P:problem=dwie triole połączone belką	!	!	!	!	!	!LO:TUP:a:problem=klamra łukowa	!	!	!
8AA/	x 7	.	24ee\LL	.	24cc#\LL	.	.	.	24ee\LL	ae-	24cc#\LL	ae-	.	.
.	.	.	24ff#\	.	24dd\	.	.	.	24ff#\	.	24dd\	.	.	.
.	.	.	24gg\	.	24ee\	.	.	.	24gg\JJ	.	24ee\JJ	.	.	.
!	!	!	!	!	!	!	!	!	!	!	!LO:TUP:a:problem=klamra łukowa	!	!	!
8r	.	.	24ff#\	.	24dd\	.	.	.	24ff#\LL	-ter-	24dd\LL	-ter-	.	.
.	.	.	24gg\	.	24ee\	.	.	.	24gg\	.	24ee\	.	.	.
.	.	.	24aa\JJ	.	24ff#\JJ	.	.	.	24aa\JJ	.	24ff#\JJ	.	.	.
!LO:TX:t=P:problem=mixed beam	!	!	!	!	!	!	!	!	!	!	!	!	!	!
8A\L	.	.	(16gg\LL	.	(16ee\LL	.	.	.	8gg\	-nam	8ee\	-nam	.	.
.	.	.	16ee\)	.	16cc#\)	.	.	.	.	.	.	.	.	.
8AA/J	.	.	(16gg\	.	(16ee\	.	.	.	8r	.	8r	.	.	.
.	.	.	16ee\JJ)	.	16cc#\JJ)	.	.	.	.	.	.	.	.	.
!	!	!	!	!	!	!	!	!	!LO:LB:g=original	!	!	!	!	!
=47	=47	=47	=47	=47	=47	=47	=47	=47	=47	=47	=47	=47	=47	=47
4D\	.	.	2r	.	8.ddT\L	.	1ryy	1ryy	2r	.	8.ddT\L	Sa-	1ryy	1ryy
.	.	.	.	.	32cc#\LL	.	.	.	.	.	(32cc#\LL	.	.	.
.	.	.	.	.	32b\JJJ	.	.	.	.	.	32b\JJJ)	.	.	.
!	!	!	!	!	!LO:TX:t=P:problem=dwie triole połączone belką	!	!	!	!	!	!LO:TUP:a:problem=klamra łukowa	!	!	!
4r	.	.	.	.	24a/LL	.	.	.	.	.	24a\LL	.	.	.
.	.	.	.	.	24g/	.	.	.	.	.	24g\	.	.	.
.	.	.	.	.	24a/	.	.	.	.	.	24a\JJ	.	.	.
!	!	!	!	!	!	!	!	!	!	!	!LO:TUP:a:problem=klamra łukowa	!	!	!
.	.	.	.	.	24b/	.	.	.	.	.	24b\LL	.	.	.
.	.	.	.	.	24a/	.	.	.	.	.	24a\	.	.	.
.	.	.	.	.	24g/JJ	.	.	.	.	.	24g\JJ	.	.	.
4D\	.	.	8.ddT\L	.	8.bT/L	.	.	.	8.ddT\L	sa-	(8.b/L	.	.	.
.	.	.	(32cc#\LL	.	(32a/LL	.	.	.	(32cc#\LL	.	32a/LL	.	.	.
.	.	.	32b\JJJ)	.	32g/JJJ)	.	.	.	32b\JJJ)	.	32g/JJJ)	.	.	.
*	*	*	*	*	*	*	*	*	*Xtuplet	*	*	*	*	*
!	!	!	!LO:LB:g=original	!	!LO:TX:t=P:problem=dwie triole połączone belką	!	!	!	!	!	!LO:TUP:b:problem=klamra łukowa	!	!	!
!	!	!	!LO:TX:t=P:problem=dwie triole połączone belką	!	!	!	!	!	!	!	!	!	!	!
4r	.	.	24a/LL	.	24f#/LL	.	.	.	24a\LL	.	24f#/LL	.	.	.
.	.	.	24g/	.	24e/	.	.	.	24g\	.	24e/	.	.	.
.	.	.	24a/	.	24f#/	.	.	.	24a\JJ	.	24f#/JJ	.	.	.
*	*	*	*	*	*	*	*	*	*tuplet	*	*	*	*	*
!	!	!	!	!	!	!	!	!	!	!	!LO:TUP:b:problem=klamra łukowa	!	!	!
.	.	.	24b/	.	24g/	.	.	.	24b\LL	.	24g/LL	.	.	.
.	.	.	24a/	.	24f#/	.	.	.	24a\	.	24f#/	.	.	.
.	.	.	24g/JJ	.	24e/JJ	.	.	.	24g\JJ	.	24e/JJ	.	.	.
!	!	!	!	!	!LO:LB:g=original	!	!	!	!	!	!LO:LB:g=original	!	!	!
=48	=48	=48	=48	=48	=48	=48	=48	=48	=48	=48	=48	=48	=48	=48
!	!	!	!	!	!	!	!	!	!	!	!LO:TUP:b:problem=klamra łukowa	!	!	!
4D\	.	.	4f#/	.	4f#;/	.	00ryy	00ryy	8f#/L	.	24d/LL	.	00ryy	00ryy
.	.	.	.	.	.	.	.	.	.	.	24f#/	.	.	.
.	.	.	.	.	.	.	.	.	.	.	24a/JJ	.	.	.
!	!	!	!	!	!	!	!	!	!LO:TUP:b	!	!LO:TUP:a:problem=klamra łukowa	!	!	!
.	.	.	.	.	.	.	.	.	24d/L	.	24f#\LL	.	.	.
.	.	.	.	.	.	.	.	.	24f#/	.	24a\	.	.	.
.	.	.	.	.	.	.	.	.	24a/JJ	.	24dd\JJ	.	.	.
!	!	!	!	!	!	!	!	!	!LO:TX:t=P:problem=dwie triole połączone belką	!	!LO:TUP:a:problem=klamra łukowa	!	!	!
4r	.	.	4r	.	4r	.	.	.	24f#\LL	.	24a\LL	.	.	.
.	.	.	.	.	.	.	.	.	24a\	.	24dd\	.	.	.
.	.	.	.	.	.	.	.	.	24dd\	.	24ff#\JJ	.	.	.
!	!	!	!	!	!	!	!	!	!	!	!LO:TUP:a:problem=klamra łukowa	!	!	!
.	.	.	.	.	.	.	.	.	24a\	.	24dd\LL	.	.	.
.	.	.	.	.	.	.	.	.	24dd\	.	24ff#\	.	.	.
.	.	.	.	.	.	.	.	.	24ff#\JJ	.	24aa\JJ	.	.	.
!	!	!	!	!	!	!	!	!	!	!	!LO:LB:g=original	!	!	!
!	!	!	!	!	!	!	!	!	!	!	!LO:TX:a:B:t=formada	!	!	!
2AA;;/	.	.	2r;	.	2r	.	.	.	4dd;\	-lu-	4dd;\	.	.	.
.	.	.	.	.	.	.	.	.	4ryy	.	8dd\L	-lu-	.	.
.	.	.	.	.	.	.	.	.	.	.	8cc#\	.	.	.
1ryy	.	.	1ryy	.	1ryy	.	.	.	00ryy	.	8ee\	.	.	.
.	.	.	.	.	.	.	.	.	.	.	8dd\J	.	.	.
.	.	.	.	.	.	.	.	.	.	.	8ff#\L	.	.	.
.	.	.	.	.	.	.	.	.	.	.	8ee\	.	.	.
.	.	.	.	.	.	.	.	.	.	.	8gg\	.	.	.
.	.	.	.	.	.	.	.	.	.	.	8ff#\J	.	.	.
.	.	.	.	.	.	.	.	.	.	.	8aa\L	.	.	.
.	.	.	.	.	.	.	.	.	.	.	8gg\	.	.	.
0ryy	.	.	0ryy	.	0ryy	.	.	.	.	.	8ccc#\	.	.	.
.	.	.	.	.	.	.	.	.	.	.	8aa\J	.	.	.
.	.	.	.	.	.	.	.	.	.	.	8.aa\L	.	.	.
.	.	.	.	.	.	.	.	.	.	.	16ff#\Jk	.	.	.
.	.	.	.	.	.	.	.	.	.	.	16aa\LL	.	.	.
.	.	.	.	.	.	.	.	.	.	.	16gg\JJ	.	.	.
.	.	.	.	.	.	.	.	.	.	.	8.gg\L	.	.	.
.	.	.	.	.	.	.	.	.	.	.	16ee\Jk	.	.	.
.	.	.	.	.	.	.	.	.	.	.	8.ff#\L	.	.	.
.	.	.	.	.	.	.	.	.	.	.	16dd\Jk	.	.	.
.	.	.	.	.	.	.	.	.	.	.	16ff#\LL	.	.	.
.	.	.	.	.	.	.	.	.	.	.	16ee\JJ	.	.	.
.	.	.	.	.	.	.	.	.	.	.	4ee;\	.	.	.
!	!	!	!	!	!	!	!	!	!	!	!LO:TUP:a:problem=klamra łukowa	!	!	!
.	.	.	.	.	.	.	.	.	.	.	24ff#\LL	.	.	.
.	.	.	.	.	.	.	.	.	.	.	24aa\	.	.	.
.	.	.	.	.	.	.	.	.	.	.	24gg\JJ	.	.	.
!	!	!	!	!	!	!	!	!	!	!	!LO:TUP:a:problem=klamra łukowa	!	!	!
.	.	.	.	.	.	.	.	.	.	.	24ff#\LL	.	.	.
.	.	.	.	.	.	.	.	.	.	.	24ee\	.	.	.
.	.	.	.	.	.	.	.	.	.	.	24dd\JJ	.	.	.
.	.	.	.	.	.	.	.	.	.	.	4ee\	.	.	.
!	!	!	!	!	!	!	!	!	!	!	!LO:LB:g=original	!	!	!
!	!	!	!	!	!	!	!	!	!	!	!LO:TUP:a:problem=klamra łukowa	!	!	!
0ryy	.	.	0ryy	.	0ryy	.	0ryy	0ryy	.	.	24ff#\LL	.	0ryy	0ryy
.	.	.	.	.	.	.	.	.	.	.	24aa\	.	.	.
.	.	.	.	.	.	.	.	.	.	.	24gg\JJ	.	.	.
!	!	!	!	!	!	!	!	!	!	!	!LO:TUP:a:problem=klamra łukowa	!	!	!
.	.	.	.	.	.	.	.	.	.	.	24ff#\LL	.	.	.
.	.	.	.	.	.	.	.	.	.	.	24ee\	.	.	.
.	.	.	.	.	.	.	.	.	.	.	24dd\JJ	.	.	.
.	.	.	.	.	.	.	.	.	.	.	4ee\	.	.	.
!	!	!	!	!	!	!	!	!	!	!	!LO:TUP:a:problem=klamra łukowa	!	!	!
.	.	.	.	.	.	.	.	.	.	.	24ff#\LL	.	.	.
.	.	.	.	.	.	.	.	.	.	.	24ee\	.	.	.
.	.	.	.	.	.	.	.	.	.	.	24ff#\JJ	.	.	.
!	!	!	!	!	!	!	!	!	!	!	!LO:TUP:a:problem=klamra łukowa	!	!	!
.	.	.	.	.	.	.	.	.	.	.	24gg\LL	.	.	.
.	.	.	.	.	.	.	.	.	.	.	24ff#\	.	.	.
.	.	.	.	.	.	.	.	.	.	.	24gg\JJ	.	.	.
.	.	.	.	.	.	.	.	.	.	.	8.aa\L	.	.	.
.	.	.	.	.	.	.	.	.	.	.	16ff#\Jk	.	.	.
!	!	!	!	!	!	!	!	!	!	!	!LO:TUP:a:problem=klamra łukowa	!	!	!
.	.	.	.	.	.	.	.	.	0ryy	.	24ee\LL	.	.	.
.	.	.	.	.	.	.	.	.	.	.	24dd\	.	.	.
.	.	.	.	.	.	.	.	.	.	.	24ee\JJ	.	.	.
!	!	!	!	!	!	!	!	!	!	!	!LO:TUP:a:problem=klamra łukowa	!	!	!
.	.	.	.	.	.	.	.	.	.	.	24ff#\LL	.	.	.
.	.	.	.	.	.	.	.	.	.	.	24ee\	.	.	.
.	.	.	.	.	.	.	.	.	.	.	24ff#\JJ	.	.	.
.	.	.	.	.	.	.	.	.	.	.	8.gg\L	.	.	.
.	.	.	.	.	.	.	.	.	.	.	16ee\Jk	.	.	.
!	!	!	!	!	!	!	!	!	!	!	!LO:TUP:a:problem=klamra łukowa	!	!	!
.	.	.	.	.	.	.	.	.	.	.	24ff#\LL	.	.	.
.	.	.	.	.	.	.	.	.	.	.	24ee\	.	.	.
.	.	.	.	.	.	.	.	.	.	.	24ff#\JJ	.	.	.
!	!	!	!	!	!	!	!	!	!	!	!LO:TUP:a:problem=klamra łukowa	!	!	!
.	.	.	.	.	.	.	.	.	.	.	24gg\LL	.	.	.
.	.	.	.	.	.	.	.	.	.	.	24ff#\	.	.	.
.	.	.	.	.	.	.	.	.	.	.	24gg\JJ	.	.	.
.	.	.	.	.	.	.	.	.	.	.	8.aa\L	.	.	.
.	.	.	.	.	.	.	.	.	.	.	16ff#\Jk	.	.	.
!	!	!	!	!	!	!	!	!	!	!	!LO:TUP:a:problem=klamra łukowa	!	!	!
1ryy	.	.	1ryy	.	1ryy	.	1ryy	1ryy	.	.	24ee\LL	.	1ryy	1ryy
.	.	.	.	.	.	.	.	.	.	.	24dd\	.	.	.
.	.	.	.	.	.	.	.	.	.	.	24ee\JJ	.	.	.
!	!	!	!	!	!	!	!	!	!	!	!LO:TUP:a:problem=klamra łukowa	!	!	!
.	.	.	.	.	.	.	.	.	.	.	24ff#\LL	.	.	.
.	.	.	.	.	.	.	.	.	.	.	24ee\	.	.	.
.	.	.	.	.	.	.	.	.	.	.	24ff#\JJ	.	.	.
.	.	.	.	.	.	.	.	.	.	.	8.gg\L	.	.	.
.	.	.	.	.	.	.	.	.	.	.	16ee\Jk	.	.	.
!	!	!	!	!	!	!	!	!	!	!	!LO:LB:g=original	!	!	!
.	.	.	.	.	.	.	.	.	.	.	(8ff#\L	.	.	.
.	.	.	.	.	.	.	.	.	.	.	8ee\	.	.	.
.	.	.	.	.	.	.	.	.	.	.	8gg\	.	.	.
.	.	.	.	.	.	.	.	.	.	.	8ee\J)	.	.	.
2ryy	.	.	2ryy	.	2ryy	.	2ryy	2ryy	2ryy	.	(8ff#\L	.	2ryy	2ryy
.	.	.	.	.	.	.	.	.	.	.	8ee\	.	.	.
.	.	.	.	.	.	.	.	.	.	.	8gg\	.	.	.
.	.	.	.	.	.	.	.	.	.	.	8ee\J)	.	.	.
4ryy	.	.	4ryy	.	4ryy	.	4ryy	4ryy	4cc#t\	-ta-	4ee;\	-ta-	4ryy	4ryy
=49-	=49-	=49-	=49-	=49-	=49-	=49-	=49-	=49-	=49	=49	=49	=49	=49-	=49-
1ryy	.	.	1ryy	.	1ryy	.	1ryy	1ryy	4dd\	-mus	4dd\	-mus.	1ryy	1ryy
.	.	.	.	.	.	.	.	.	2r	.	4r	.	.	.
.	.	.	.	.	.	.	.	.	.	.	2r	.	.	.
.	.	.	.	.	.	.	.	.	4r	.	.	.	.	.
!LO:TX:b:t=daCapo\nusq ad Signu [podwójna fermata]	!	!	!LO:TX:b:t=da Capo usqve ad Segno [podwójna fermata]	!	!LO:TX:b:t=da Capo usq ad Signum Finis.	!	!	!	!LO:TX:b:t=Seqe. Tutti\nV&colon; S&colon;	!	!LO:TX:b:t=Seqvitur Tutti\nChorus.	!	!	!
==	==	==	==	==	==	==	==	==	==	==	==	==	==	==
*-	*-	*-	*-	*-	*-	*-	*-	*-	*-	*-	*-	*-	*-	*-
!!!system-decoration: [g1][g2][g3]g4
!!!RDF**kern: | = vertical stroke
!!!ENC: Katarzyna Serwa
!!!END: 2022-02-09
!!!ENC: Andrzej Gręziak
!!!END: 2020-07-28
